<?xml version="1.0" encoding="UTF-8"?>
<map version="1.10" tiledversion="1.12.2" orientation="orthogonal" renderorder="right-down" width="60" height="60" tilewidth="16" tileheight="16" infinite="0" nextlayerid="10" nextobjectid="10">
 <tileset firstgid="1" source="../tsx/TFT_tileA2_world.tsx"/>
 <tileset firstgid="769" source="../tsx/TFT_tileB_world.tsx"/>
 <tileset firstgid="1793" source="../tsx/TFT_tileA5_outside2.tsx"/>
 <tileset firstgid="2305" source="../tsx/TFT_tileA5_world.tsx"/>
 <layer id="4" name="BottomGrass" width="60" height="60">
  <data encoding="csv">
161,162,161,162,161,162,161,162,161,162,161,162,161,162,161,162,161,162,161,162,161,162,161,162,161,162,161,162,161,162,161,162,161,162,161,162,161,162,161,162,161,162,161,162,161,162,161,162,161,162,161,162,161,162,161,162,161,162,161,162,
193,194,193,194,193,194,193,194,193,194,193,194,193,194,193,194,193,194,193,194,193,194,193,194,193,194,193,194,193,194,193,194,193,194,193,194,193,194,193,194,193,194,193,194,193,194,193,194,193,194,193,194,193,194,193,194,193,194,193,194,
161,162,161,162,161,162,161,162,161,162,161,162,161,162,161,162,161,162,161,162,161,162,161,162,161,162,161,162,161,162,161,162,161,162,161,162,161,162,161,162,161,162,161,162,161,162,161,162,161,162,161,162,161,162,161,162,161,162,161,162,
193,194,193,194,193,194,193,194,193,194,193,194,193,194,193,194,193,194,193,194,193,194,193,194,193,194,193,194,193,194,193,194,193,194,193,194,193,194,193,194,193,194,193,194,193,194,193,194,193,194,193,194,193,194,193,194,193,194,193,194,
161,162,161,162,161,162,161,162,161,162,161,162,161,162,161,162,161,162,161,162,161,162,161,162,161,162,161,162,161,162,161,162,161,162,161,162,161,162,161,162,161,162,161,162,161,162,161,162,161,162,161,162,161,162,161,162,161,162,161,162,
193,194,193,194,193,194,193,194,193,194,193,194,193,194,193,194,193,194,193,194,193,194,193,194,193,194,193,194,193,194,193,194,193,194,193,194,193,194,193,194,193,194,193,194,193,194,193,194,193,194,193,194,193,194,193,194,193,194,193,194,
161,162,161,162,161,162,161,162,161,162,161,162,161,162,161,162,161,162,161,162,161,162,161,162,161,162,161,162,161,162,161,162,161,162,161,162,161,162,161,162,161,162,161,162,161,162,161,162,161,162,161,162,161,162,161,162,161,162,161,162,
193,194,193,194,193,194,193,194,193,194,193,194,193,194,193,194,193,194,193,194,193,194,193,194,193,194,193,194,193,194,193,194,193,194,193,194,193,194,193,194,193,194,193,194,193,194,193,194,193,194,193,194,193,194,193,194,193,194,193,194,
161,162,161,162,161,162,161,162,161,162,161,162,161,162,161,162,161,162,161,162,161,162,161,162,161,162,161,162,161,162,161,162,161,162,161,162,161,162,161,162,161,162,161,162,161,162,161,162,161,162,161,162,161,162,161,162,161,162,161,162,
193,194,193,194,193,194,193,194,193,194,193,194,193,194,193,194,193,194,193,194,193,194,193,194,193,194,193,194,193,194,193,194,193,194,193,194,193,194,193,194,193,194,193,194,193,194,193,194,193,194,193,194,193,194,193,194,193,194,193,194,
161,162,161,162,161,162,161,162,161,162,161,162,161,162,161,162,161,162,161,162,161,162,161,162,161,162,161,162,161,162,161,162,161,162,161,162,161,162,161,162,161,162,161,162,161,162,161,162,161,162,161,162,161,162,161,162,161,162,161,162,
193,194,193,194,193,194,193,194,193,194,193,194,193,194,193,194,193,194,193,194,193,194,193,194,193,194,193,194,193,194,193,194,193,194,193,194,193,194,193,194,193,194,193,194,193,194,193,194,193,194,193,194,193,194,193,194,193,194,193,194,
161,162,161,162,161,162,161,162,161,162,161,162,161,162,161,162,161,162,161,162,161,162,161,162,161,162,161,162,161,162,161,162,161,162,161,162,161,162,161,162,161,162,161,162,161,162,161,162,161,162,161,162,161,162,161,162,161,162,161,162,
193,194,193,194,193,194,193,194,193,194,193,194,193,194,193,194,193,194,193,194,193,194,193,194,193,194,193,194,193,194,193,194,193,194,193,194,193,194,193,194,193,194,193,194,193,194,193,194,193,194,193,194,193,194,193,194,193,194,193,194,
161,162,161,162,161,162,161,162,161,162,161,162,161,162,161,162,161,162,161,162,161,162,161,162,161,162,161,162,161,162,161,162,161,162,161,162,161,162,161,162,161,162,161,162,161,162,161,162,161,162,161,162,161,162,161,162,161,162,161,162,
193,194,193,194,193,194,193,194,193,194,193,194,193,194,193,194,193,194,193,194,193,194,193,194,193,194,193,194,193,194,193,194,193,194,193,194,193,194,193,194,193,194,193,194,193,194,193,194,193,194,193,194,193,194,193,194,193,194,193,194,
161,162,161,162,161,162,161,162,161,162,161,162,161,162,161,162,161,162,161,162,161,162,161,162,161,162,161,162,161,162,161,162,161,162,161,162,161,162,161,162,161,162,161,162,161,162,161,162,161,162,161,162,161,162,161,162,161,162,161,162,
193,194,193,194,193,194,193,194,193,194,193,194,193,194,193,194,193,194,193,194,193,194,193,194,193,194,193,194,193,194,193,194,193,194,193,194,193,194,193,194,193,194,193,194,193,194,193,194,193,194,193,194,193,194,193,194,193,194,193,194,
161,162,161,162,161,162,161,162,161,162,161,162,161,162,161,162,161,162,161,162,161,162,161,162,161,162,161,162,161,162,161,162,161,162,161,162,161,162,161,162,161,162,161,162,161,162,161,162,161,162,161,162,161,162,161,162,161,162,161,162,
193,194,193,194,193,194,193,194,193,194,193,194,193,194,193,194,193,194,193,194,193,194,193,194,193,194,193,194,193,194,193,194,193,194,193,194,193,194,193,194,193,194,193,194,193,194,193,194,193,194,193,194,193,194,193,194,193,194,193,194,
161,162,161,162,161,162,161,162,161,162,161,162,161,162,161,162,161,162,161,162,161,162,161,162,161,162,161,162,161,162,161,162,161,162,161,162,161,162,161,162,161,162,161,162,161,162,161,162,161,162,161,162,161,162,161,162,161,162,161,162,
193,194,193,194,193,194,193,194,193,194,193,194,193,194,193,194,193,194,193,194,193,194,193,194,193,194,193,194,193,194,193,194,193,194,193,194,193,194,193,194,193,194,193,194,193,194,193,194,193,194,193,194,193,194,193,194,193,194,193,194,
161,162,161,162,161,162,161,162,161,162,161,162,161,162,161,162,161,162,161,162,161,162,161,162,161,162,161,162,161,162,161,162,161,162,161,162,161,162,161,162,161,162,161,162,161,162,161,162,161,162,161,162,161,162,161,162,161,162,161,162,
193,194,193,194,193,194,193,194,193,194,193,194,193,194,193,194,193,194,193,194,193,194,193,194,193,194,193,194,193,194,193,194,193,194,193,194,193,194,193,194,193,194,193,194,193,194,193,194,193,194,193,194,193,194,193,194,193,194,193,194,
161,162,161,162,161,162,161,162,161,162,161,162,161,162,161,162,161,162,161,162,161,162,161,162,161,162,161,162,161,162,161,162,161,162,161,162,161,162,161,162,161,162,161,162,161,162,161,162,161,162,161,162,161,162,161,162,161,162,161,162,
193,194,193,194,193,194,193,194,193,194,193,194,193,194,193,194,193,194,193,194,193,194,193,194,193,194,193,194,193,194,193,194,193,194,193,194,193,194,193,194,193,194,193,194,193,194,193,194,193,194,193,194,193,194,193,194,193,194,193,194,
161,162,161,162,161,162,161,162,161,162,161,162,161,162,161,162,161,162,161,162,161,162,161,162,161,162,161,162,161,162,161,162,161,162,161,162,161,162,161,162,161,162,161,162,161,162,161,162,161,162,161,162,161,162,161,162,161,162,161,162,
193,194,193,194,193,194,193,194,193,194,193,194,193,194,193,194,193,194,193,194,193,194,193,194,193,194,193,194,193,194,193,194,193,194,193,194,193,194,193,194,193,194,193,194,193,194,193,194,193,194,193,194,193,194,193,194,193,194,193,194,
161,162,161,162,161,162,161,162,161,162,161,162,161,162,161,162,161,162,161,162,161,162,161,162,161,162,161,162,161,162,161,162,161,162,161,162,161,162,161,162,161,162,161,162,161,162,161,162,161,162,161,162,161,162,161,162,161,162,161,162,
193,194,193,194,193,194,193,194,193,194,193,194,193,194,193,194,193,194,193,194,193,194,193,194,193,194,193,194,193,194,193,194,193,194,193,194,193,194,193,194,193,194,193,194,193,194,193,194,193,194,193,194,193,194,193,194,193,194,193,194,
161,162,161,162,161,162,161,162,161,162,161,162,161,162,161,162,161,162,161,162,161,162,161,162,161,162,161,162,161,162,161,162,161,162,161,162,161,162,161,162,161,162,161,162,161,162,161,162,161,162,161,162,161,162,161,162,161,162,161,162,
193,194,193,194,193,194,193,194,193,194,193,194,193,194,193,194,193,194,193,194,193,194,193,194,193,194,193,194,193,194,193,194,193,194,193,194,193,194,193,194,193,194,193,194,193,194,193,194,193,194,193,194,193,194,193,194,193,194,193,194,
161,162,161,162,161,162,161,162,161,162,161,162,161,162,161,162,161,162,161,162,161,162,161,162,161,162,161,162,161,162,161,162,161,162,161,162,161,162,161,162,161,162,161,162,161,162,161,162,161,162,161,162,161,162,161,162,161,162,161,162,
193,194,193,194,193,194,193,194,193,194,193,194,193,194,193,194,193,194,193,194,193,194,193,194,193,194,193,194,193,194,193,194,193,194,193,194,193,194,193,194,193,194,193,194,193,194,193,194,193,194,193,194,193,194,193,194,193,194,193,194,
161,162,161,162,161,162,161,162,161,162,161,162,161,162,161,162,161,162,161,162,161,162,161,162,161,162,161,162,161,162,161,162,161,162,161,162,161,162,161,162,161,162,161,162,161,162,161,162,161,162,161,162,161,162,161,162,161,162,161,162,
193,194,193,194,193,194,193,194,193,194,193,194,193,194,193,194,193,194,193,194,193,194,193,194,193,194,193,194,193,194,193,194,193,194,193,194,193,194,193,194,193,194,193,194,193,194,193,194,193,194,193,194,193,194,193,194,193,194,193,194,
161,162,161,162,161,162,161,162,161,162,161,162,161,162,161,162,161,162,161,162,161,162,161,162,161,162,161,162,161,162,161,162,161,162,161,162,161,162,161,162,161,162,161,162,161,162,161,162,161,162,161,162,161,162,161,162,161,162,161,162,
193,194,193,194,193,194,193,194,193,194,193,194,193,194,193,194,193,194,193,194,193,194,193,194,193,194,193,194,193,194,193,194,193,194,193,194,193,194,193,194,193,194,193,194,193,194,193,194,193,194,193,194,193,194,193,194,193,194,193,194,
161,162,161,162,161,162,161,162,161,162,161,162,161,162,161,162,161,162,161,162,161,162,161,162,161,162,161,162,161,162,161,162,161,162,161,162,161,162,161,162,161,162,161,162,161,162,161,162,161,162,161,162,161,162,161,162,161,162,161,162,
193,194,193,194,193,194,193,194,193,194,193,194,193,194,193,194,193,194,193,194,193,194,193,194,193,194,193,194,193,194,193,194,193,194,193,194,193,194,193,194,193,194,193,194,193,194,193,194,193,194,193,194,193,194,193,194,193,194,193,194,
161,162,161,162,161,162,161,162,161,162,161,162,161,162,161,162,161,162,161,162,161,162,161,162,161,162,161,162,161,162,161,162,161,162,161,162,161,162,161,162,161,162,161,162,161,162,161,162,161,162,161,162,161,162,161,162,161,162,161,162,
193,194,193,194,193,194,193,194,193,194,193,194,193,194,193,194,193,194,193,194,193,194,193,194,193,194,193,194,193,194,193,194,193,194,193,194,193,194,193,194,193,194,193,194,193,194,193,194,193,194,193,194,193,194,193,194,193,194,193,194,
161,162,161,162,161,162,161,162,161,162,161,162,161,162,161,162,161,162,161,162,161,162,161,162,161,162,161,162,161,162,161,162,161,162,161,162,161,162,161,162,161,162,161,162,161,162,161,162,161,162,161,162,161,162,161,162,161,162,161,162,
193,194,193,194,193,194,193,194,193,194,193,194,193,194,193,194,193,194,193,194,193,194,193,194,193,194,193,194,193,194,193,194,193,194,193,194,193,194,193,194,193,194,193,194,193,194,193,194,193,194,193,194,193,194,193,194,193,194,193,194,
161,162,161,162,161,162,161,162,161,162,161,162,161,162,161,162,161,162,161,162,161,162,161,162,161,162,161,162,161,162,161,162,161,162,161,162,161,162,161,162,161,162,161,162,161,162,161,162,161,162,161,162,161,162,161,162,161,162,161,162,
193,194,193,194,193,194,193,194,193,194,193,194,193,194,193,194,193,194,193,194,193,194,193,194,193,194,193,194,193,194,193,194,193,194,193,194,193,194,193,194,193,194,193,194,193,194,193,194,193,194,193,194,193,194,193,194,193,194,193,194,
161,162,161,162,161,162,161,162,161,162,161,162,161,162,161,162,161,162,161,162,161,162,161,162,161,162,161,162,161,162,161,162,161,162,161,162,161,162,161,162,161,162,161,162,161,162,161,162,161,162,161,162,161,162,161,162,161,162,161,162,
193,194,193,194,193,194,193,194,193,194,193,194,193,194,193,194,193,194,193,194,193,194,193,194,193,194,193,194,193,194,193,194,193,194,193,194,193,194,193,194,193,194,193,194,193,194,193,194,193,194,193,194,193,194,193,194,193,194,193,194,
161,162,161,162,161,162,161,162,161,162,161,162,161,162,161,162,161,162,161,162,161,162,161,162,161,162,161,162,161,162,161,162,161,162,161,162,161,162,161,162,161,162,161,162,161,162,161,162,161,162,161,162,161,162,161,162,161,162,161,162,
193,194,193,194,193,194,193,194,193,194,193,194,193,194,193,194,193,194,193,194,193,194,193,194,193,194,193,194,193,194,193,194,193,194,193,194,193,194,193,194,193,194,193,194,193,194,193,194,193,194,193,194,193,194,193,194,193,194,193,194,
161,162,161,162,161,162,161,162,161,162,161,162,161,162,161,162,161,162,161,162,161,162,161,162,161,162,161,162,161,162,161,162,161,162,161,162,161,162,161,162,161,162,161,162,161,162,161,162,161,162,161,162,161,162,161,162,161,162,161,162,
193,194,193,194,193,194,193,194,193,194,193,194,193,194,193,194,193,194,193,194,193,194,193,194,193,194,193,194,193,194,193,194,193,194,193,194,193,194,193,194,193,194,193,194,193,194,193,194,193,194,193,194,193,194,193,194,193,194,193,194,
161,162,161,162,161,162,161,162,161,162,161,162,161,162,161,162,161,162,161,162,161,162,161,162,161,162,161,162,161,162,161,162,161,162,161,162,161,162,161,162,161,162,161,162,161,162,161,162,161,162,161,162,161,162,161,162,161,162,161,162,
193,194,193,194,193,194,193,194,193,194,193,194,193,194,193,194,193,194,193,194,193,194,193,194,193,194,193,194,193,194,193,194,193,194,193,194,193,194,193,194,193,194,193,194,193,194,193,194,193,194,193,194,193,194,193,194,193,194,193,194,
161,162,161,162,161,162,161,162,161,162,161,162,161,162,161,162,161,162,161,162,161,162,161,162,161,162,161,162,161,162,161,162,161,162,161,162,161,162,161,162,161,162,161,162,161,162,161,162,161,162,161,162,161,162,161,162,161,162,161,162,
193,194,193,194,193,194,193,194,193,194,193,194,193,194,193,194,193,194,193,194,193,194,193,194,193,194,193,194,193,194,193,194,193,194,193,194,193,194,193,194,193,194,193,194,193,194,193,194,193,194,193,194,193,194,193,194,193,194,193,194,
161,162,161,162,161,162,161,162,161,162,161,162,161,162,161,162,161,162,161,162,161,162,161,162,161,162,161,162,161,162,161,162,161,162,161,162,161,162,161,162,161,162,161,162,161,162,161,162,161,162,161,162,161,162,161,162,161,162,161,162,
193,194,193,194,193,194,193,194,193,194,193,194,193,194,193,194,193,194,193,194,193,194,193,194,193,194,193,194,193,194,193,194,193,194,193,194,193,194,193,194,193,194,193,194,193,194,193,194,193,194,193,194,193,194,193,194,193,194,193,194,
161,162,161,162,161,162,161,162,161,162,161,162,161,162,161,162,161,162,161,162,161,162,161,162,161,162,161,162,161,162,161,162,161,162,161,162,161,162,161,162,161,162,161,162,161,162,161,162,161,162,161,162,161,162,161,162,161,162,161,162,
193,194,193,194,193,194,193,194,193,194,193,194,193,194,193,194,193,194,193,194,193,194,193,194,193,194,193,194,193,194,193,194,193,194,193,194,193,194,193,194,193,194,193,194,193,194,193,194,193,194,193,194,193,194,193,194,193,194,193,194
</data>
 </layer>
 <layer id="1" name="Path" width="60" height="60">
  <data encoding="csv">
0,0,0,0,0,0,0,0,0,0,0,0,0,0,0,0,0,0,0,0,0,0,0,0,0,1901,1902,1903,1904,0,0,0,0,0,0,1901,1902,1903,1904,0,0,0,0,0,0,0,0,0,0,0,0,0,0,0,0,0,0,0,0,0,
0,0,1901,1902,1903,1904,0,0,0,0,0,0,0,0,0,0,0,0,0,0,0,0,0,0,0,1917,1918,1919,1920,0,0,0,0,0,0,1917,1918,1919,1920,0,0,0,0,0,0,0,0,0,0,0,0,0,0,0,0,0,0,0,0,0,
0,0,1917,1918,1919,1920,0,0,0,0,0,0,0,0,0,0,0,0,0,0,0,0,0,0,0,0,0,0,0,0,0,0,0,0,0,0,0,0,0,0,0,0,0,0,0,0,0,0,0,0,0,0,0,0,0,0,0,0,0,0,
0,0,1917,1918,1919,1920,0,0,0,0,0,0,0,0,0,0,0,0,0,0,0,0,0,0,0,0,0,0,0,0,0,0,0,0,0,0,0,0,0,0,0,0,0,0,0,0,0,0,0,0,0,0,0,0,0,0,0,0,0,0,
0,0,0,0,0,0,0,0,0,0,0,0,0,0,0,0,0,0,0,0,0,0,0,0,0,0,0,0,0,0,1901,1902,1903,1904,0,0,0,0,0,0,0,0,0,0,0,0,0,0,0,0,0,0,0,0,0,0,0,0,0,0,
0,0,0,0,0,0,0,0,0,0,0,0,0,0,0,0,0,0,0,0,0,0,0,0,0,0,0,0,0,0,1917,1918,1919,1920,0,0,0,0,0,0,0,0,0,0,0,0,0,0,0,0,0,0,0,0,0,0,0,0,0,0,
0,0,0,0,0,0,0,0,0,0,0,0,0,0,0,0,0,0,0,0,0,0,0,0,0,0,0,0,0,0,0,0,0,0,0,0,0,0,0,0,0,0,0,0,0,0,0,0,0,0,0,0,0,0,0,0,0,0,0,0,
0,0,0,0,0,0,0,0,0,0,0,0,0,0,0,0,0,0,0,0,0,0,0,0,0,0,0,0,0,0,0,0,0,0,0,0,0,0,0,0,0,0,0,0,0,1901,1902,1903,1904,0,0,0,0,0,0,0,0,0,0,0,
0,0,0,0,0,0,0,0,0,0,0,0,0,0,0,0,0,0,0,0,0,0,0,0,0,0,0,0,0,0,0,0,0,0,0,0,0,0,0,0,0,0,0,0,0,1917,1918,1919,1920,0,0,0,0,0,0,0,0,0,0,0,
0,0,0,0,0,0,0,0,1901,1902,1903,1904,0,0,0,0,0,0,0,0,0,0,0,0,0,0,0,0,0,0,0,0,0,0,0,0,0,0,0,0,0,0,0,0,0,0,0,0,0,0,0,0,0,0,1901,1902,1903,1904,0,0,
0,0,0,0,0,0,0,0,1917,1918,1919,1920,0,0,0,0,0,0,0,0,0,0,0,0,0,0,0,0,0,0,0,0,0,0,0,0,0,1571,1572,0,0,0,0,0,0,0,0,0,0,0,0,0,0,0,1917,1918,1919,1920,0,0,
0,0,0,0,0,0,0,0,0,0,0,0,0,0,0,0,0,0,0,0,0,0,0,0,0,0,0,0,0,0,0,0,0,1635,1636,1635,1636,1635,1636,0,0,0,0,0,0,0,0,0,0,0,0,0,0,0,0,0,0,0,0,0,
0,0,0,0,0,0,0,0,0,0,0,0,0,0,0,0,0,0,0,0,0,0,0,0,0,0,0,0,0,0,0,0,0,0,0,0,0,0,0,0,0,0,0,0,0,0,0,0,0,0,0,0,0,0,0,0,0,0,0,0,
0,0,0,0,0,0,0,0,0,0,0,0,0,0,0,0,0,0,0,0,0,0,0,0,0,0,0,0,0,0,0,0,0,0,0,0,0,0,0,0,0,0,0,0,0,0,0,0,0,0,0,0,0,0,0,0,0,0,0,0,
0,0,0,0,0,0,0,0,0,0,0,0,0,0,0,0,0,0,0,0,0,0,0,0,0,0,0,0,0,134,134,0,0,0,0,0,0,0,0,0,0,0,0,0,0,0,0,0,0,0,0,0,0,0,0,0,0,0,0,0,
0,0,0,0,0,0,0,0,0,0,0,0,0,0,0,0,0,0,0,0,0,0,0,0,0,0,0,0,0,134,134,0,0,0,0,0,0,0,0,0,0,0,0,0,0,0,0,0,0,0,0,0,0,0,0,0,0,0,0,0,
0,0,0,0,0,0,0,0,0,0,0,0,0,0,0,0,0,0,0,0,0,0,0,0,0,0,0,0,0,134,134,0,0,0,1901,1902,1903,1904,0,0,0,0,0,0,0,0,0,0,0,0,0,0,0,0,0,0,0,0,0,0,
0,0,0,0,0,0,0,0,0,0,0,0,0,0,0,0,0,0,0,0,0,0,0,0,0,0,0,0,0,134,134,0,0,0,1917,1918,1919,1920,0,0,0,0,0,0,0,0,0,0,0,0,0,0,0,0,0,0,0,0,0,0,
0,0,0,0,0,0,0,0,0,0,0,0,0,0,0,0,0,0,0,0,0,0,0,0,0,0,0,0,0,134,134,0,0,0,0,0,0,0,0,0,0,0,0,0,0,0,0,0,0,0,0,0,0,0,0,0,0,0,0,0,
0,0,0,0,0,0,0,0,0,0,0,0,0,0,0,0,0,0,0,0,0,0,0,0,0,0,1903,1904,0,134,134,0,0,0,0,0,0,0,0,0,0,0,0,0,0,0,0,0,0,0,0,0,0,0,0,0,0,0,0,0,
0,0,0,0,0,0,0,0,0,0,0,0,0,1901,1902,1903,1904,0,0,0,0,0,1903,1904,1904,0,1919,1920,0,134,134,0,0,1901,1902,1903,1904,0,0,0,1902,1903,1904,1901,1902,1903,1904,0,0,0,0,0,0,0,0,0,0,0,0,0,
0,0,0,0,0,0,0,0,0,0,0,0,0,1917,1918,1919,1920,0,0,0,0,0,1919,1920,1920,0,0,0,0,134,134,0,0,1917,1918,1919,1920,0,0,0,1918,1919,1920,1917,1918,1919,1920,0,0,0,0,0,0,0,0,0,0,0,0,0,
1902,1903,1904,0,0,0,0,0,0,101,134,134,134,134,134,134,134,134,134,134,134,134,134,134,134,134,134,134,134,134,134,134,134,134,134,134,134,134,134,134,134,134,134,134,134,134,134,134,134,296,104,1901,1902,1903,1904,0,0,0,0,0,
0,0,0,0,0,0,0,1873,1874,133,134,134,134,134,134,134,134,134,134,134,134,134,134,134,134,134,134,134,134,134,134,134,134,134,134,134,134,134,134,134,134,134,134,134,134,134,134,134,134,328,136,1917,1918,1919,1920,0,0,0,0,0,
0,0,0,0,0,0,0,0,1857,1858,0,0,0,0,0,0,0,0,0,0,0,0,0,0,0,2147483720,2147483656,2147483782,2147483782,134,134,134,134,8,72,0,0,0,0,0,0,0,0,0,0,0,0,0,0,0,0,0,0,0,0,0,0,0,0,0,
0,0,0,0,0,0,0,0,1873,1874,0,0,0,0,0,0,0,0,1903,1904,0,0,0,0,2147483720,2147483656,2147483782,2147483782,2147483782,134,134,134,134,134,8,72,1873,0,0,0,0,0,0,0,0,0,0,0,0,0,0,0,0,0,0,0,0,0,0,0,
0,0,0,0,0,0,0,1903,1904,1903,1904,0,0,0,0,0,0,0,1919,1920,0,0,0,2147483720,2147483656,2147483782,2147483687,2147483814,2147483688,134,134,40,166,39,134,8,72,0,0,0,0,0,0,0,0,0,0,0,0,0,0,0,0,0,0,0,0,0,0,0,
0,0,0,0,0,0,0,0,0,0,0,0,0,0,0,0,0,0,0,0,0,0,2147483720,2147483656,2147483782,2147483687,2147483813,0,2147483816,134,134,168,0,165,39,134,8,72,0,0,0,0,1901,1902,1903,1904,0,0,0,0,0,0,0,0,0,0,0,0,1901,1902,
0,0,0,0,0,0,0,0,0,0,0,0,0,0,0,0,0,0,0,0,0,2147483720,2147483656,2147483782,2147483687,2147483813,0,0,0,134,134,0,0,0,165,39,134,8,72,0,0,0,1917,1918,1919,1920,0,0,0,0,0,0,0,0,0,0,0,0,1917,1918,
0,0,0,0,0,0,1901,1902,1903,1904,0,0,0,0,0,0,0,0,0,0,2147483720,2147483656,2147483782,2147483687,2147483813,0,0,0,0,134,134,0,0,0,0,165,39,134,8,72,0,0,0,0,0,0,0,0,0,0,0,0,0,0,0,0,0,0,0,0,
0,0,0,0,0,0,1917,1918,1919,1920,0,0,0,0,0,0,0,0,0,2147483720,2147483656,2147483782,2147483687,2147483813,0,0,0,0,0,134,134,1901,1902,0,0,0,165,39,134,8,72,0,0,0,0,0,0,0,0,0,0,0,0,0,0,0,0,0,0,0,
0,0,0,0,1901,1902,1903,1904,1901,1902,1903,1904,0,0,0,0,0,0,2147483720,2147483656,2147483782,2147483687,2147483813,0,0,0,0,0,0,134,134,1917,1918,0,0,0,0,165,39,134,8,72,0,0,0,0,0,0,0,0,0,0,0,1475,1476,1477,1474,1476,0,0,
0,0,0,0,1917,1918,1919,1920,1917,1918,1919,1920,0,0,0,0,0,2147483720,2147483656,2147483782,2147483687,2147483813,0,0,0,0,0,0,0,134,134,0,0,0,0,0,0,0,165,39,134,8,72,0,0,0,0,0,0,0,0,1474,1729,1730,1764,1765,1766,1764,1765,1732,
1903,1904,0,0,0,0,1901,1902,1903,1904,0,0,0,0,0,0,2147483720,2147483656,2147483782,2147483687,360,0,0,0,0,0,0,0,0,134,134,0,0,0,0,0,0,0,0,357,39,134,8,72,0,1901,1902,1903,0,0,0,1506,1761,1762,1763,1762,1762,1762,1763,1764,
0,0,0,0,0,0,1917,1918,1919,1920,0,0,0,0,0,2147483720,2147483656,2147483782,2147483687,2147483813,0,0,0,0,0,0,0,0,0,134,134,0,0,0,0,0,0,0,0,1903,1904,39,134,8,72,1917,1918,1919,0,0,0,1570,1571,1572,1763,1762,1763,1763,1763,1763,
0,0,0,0,0,0,0,0,0,0,0,0,0,0,2147483720,2147483656,2147483782,2147483687,2147483813,0,0,0,0,0,0,0,0,0,0,134,134,1917,0,0,0,0,0,0,0,1919,1920,165,39,134,8,72,0,0,0,0,0,1602,1665,1666,1763,1763,1763,1763,1763,1763,
0,0,0,0,0,0,0,0,0,0,0,0,0,2147483720,2147483656,2147483782,2147483687,360,0,0,0,0,0,0,0,0,0,0,0,134,134,0,1917,0,0,0,0,0,0,0,0,0,165,39,134,8,72,0,0,0,0,1634,1697,1665,1666,1763,1762,1762,1762,1763,
0,0,0,0,0,0,0,0,0,0,0,0,2147483720,2147483656,2147483782,2147483687,0,0,0,0,0,0,0,0,0,0,0,1901,1902,134,134,0,0,1917,0,0,0,0,0,0,0,0,0,357,39,134,8,72,0,0,0,0,0,1697,1665,1666,1762,1762,1763,1762,
0,0,0,0,0,0,0,0,0,0,0,2147483720,2147483656,2147483782,2147483687,2147483813,0,1903,1904,0,0,0,0,0,0,0,0,1917,1918,134,134,0,1917,0,0,0,0,0,0,0,0,0,0,0,165,39,134,8,72,0,0,0,0,0,1697,1665,1666,1762,1763,1762,
0,0,0,0,0,0,0,0,0,2147483911,2147483911,2147483656,2147483782,2147483687,2147483813,1903,1904,1919,1920,0,0,0,0,0,0,0,0,0,0,134,134,1917,0,0,0,0,0,0,0,0,0,0,0,0,0,165,39,134,8,263,263,0,0,0,0,1697,1665,1666,1762,1763,
0,0,0,0,0,0,0,0,0,2147483782,2147483782,2147483782,2147483687,2147483813,0,1919,1920,0,0,0,0,0,0,0,0,0,0,0,0,134,134,0,0,0,0,0,1901,1902,1901,1902,1903,1904,0,0,0,0,165,39,134,134,134,0,0,0,0,0,1697,1603,1604,1603,
0,0,0,0,0,0,0,0,0,2147484006,2147484006,2147484006,2147484005,0,0,0,0,0,0,0,0,0,0,0,0,0,0,1901,1902,134,134,0,0,0,0,0,1917,1918,1917,1918,1919,1920,0,0,0,0,226,357,358,358,358,0,0,0,0,0,0,1635,1636,1635,
0,0,0,0,0,0,0,0,0,0,0,0,0,0,0,0,0,0,0,0,0,0,0,0,0,0,0,1917,1918,134,134,0,0,0,0,0,1902,1903,1904,1901,1901,1902,0,0,0,0,0,0,1903,1904,0,0,0,0,0,0,0,0,0,0,
0,0,0,0,0,0,0,0,0,0,0,0,0,0,0,0,0,0,0,0,0,0,0,0,0,0,1901,1902,0,134,134,0,0,0,0,0,1918,1919,1920,1917,1917,1918,0,0,0,0,0,0,1919,1920,0,0,0,0,0,0,0,0,1901,1902,
0,0,0,0,0,0,0,0,0,0,0,0,0,0,0,0,0,0,0,0,0,0,0,0,0,0,1917,1901,1902,134,134,0,0,0,0,0,1901,1902,1901,1902,1903,1904,0,0,0,0,0,0,0,0,0,0,0,0,0,0,0,0,1917,1918,
0,0,0,0,0,0,0,0,0,0,0,0,0,0,0,0,0,0,0,0,0,0,0,0,0,0,0,1917,1918,134,134,0,0,0,0,0,1917,1918,1917,1918,1919,1920,0,0,0,0,0,0,0,0,0,0,0,0,0,0,0,1901,1902,1903,
0,0,0,0,0,0,0,0,0,0,0,0,0,0,0,0,0,0,0,0,0,0,0,0,0,0,0,0,0,134,134,0,0,0,0,0,0,0,0,0,0,0,0,0,0,0,0,0,0,0,0,0,0,0,0,0,0,1917,1918,1919,
0,0,0,0,0,0,0,0,0,0,0,0,0,0,0,1835,1836,0,0,0,0,0,0,0,0,0,0,0,0,134,134,0,0,0,0,0,0,0,0,0,0,0,0,0,0,0,0,0,0,0,0,0,0,0,0,0,0,0,1901,1902,
0,0,0,0,0,0,0,0,0,0,0,0,0,0,0,1851,1852,0,0,0,0,0,0,0,0,0,0,0,0,0,0,0,0,0,0,0,0,0,0,0,0,0,0,0,0,0,0,0,0,0,0,0,0,0,0,0,0,0,1917,1918,
0,0,0,0,0,0,0,0,0,0,0,0,0,0,0,0,0,0,0,0,0,0,0,0,0,0,0,0,0,0,0,0,0,0,0,0,0,0,0,0,0,0,0,0,0,0,0,0,0,0,0,0,0,0,0,0,0,0,0,0,
0,0,0,0,0,0,0,0,0,0,0,0,0,0,0,0,0,0,0,0,0,0,0,0,0,0,0,0,0,0,0,0,0,0,0,0,0,0,0,0,0,0,0,0,0,0,0,0,0,0,0,0,0,0,0,0,0,0,0,0,
0,0,0,0,0,0,0,0,0,0,0,0,0,0,0,0,0,0,0,0,0,0,0,0,0,0,0,0,0,0,0,0,0,0,0,0,0,0,0,0,0,0,0,0,0,0,0,0,0,0,0,0,0,0,0,0,0,0,0,0,
0,0,0,0,0,0,0,0,0,0,0,0,0,0,0,0,0,0,0,0,0,0,0,0,0,0,0,0,0,0,0,0,0,0,0,0,0,0,0,0,0,0,0,0,0,0,0,0,0,0,0,0,0,0,0,0,0,0,0,0,
0,0,0,0,0,0,0,0,0,0,0,0,0,0,0,0,0,0,0,0,0,0,0,0,0,0,0,0,0,0,0,0,0,0,0,0,0,0,0,0,0,0,0,0,0,0,0,0,0,0,0,1857,1858,1857,1858,0,0,0,0,0,
0,0,0,0,0,0,0,0,0,1901,1902,0,0,0,0,0,0,0,0,0,0,0,0,0,0,0,0,0,0,0,0,0,0,0,0,0,0,0,0,0,0,0,0,0,0,0,0,0,0,0,0,1873,1874,1873,1874,0,0,0,0,0,
0,0,0,0,0,0,0,0,0,1917,1918,0,0,0,0,0,0,0,0,0,0,0,0,0,0,0,0,0,0,0,0,0,0,0,0,0,0,0,0,0,0,0,0,0,0,0,0,0,0,0,0,0,0,0,0,0,0,0,0,0,
0,0,0,0,0,0,0,0,0,0,0,0,0,0,0,0,0,0,0,0,0,0,0,0,0,0,0,0,0,0,0,0,0,0,0,0,0,0,0,0,0,0,0,0,0,0,0,0,0,0,0,0,0,0,0,0,0,0,0,0,
0,0,0,0,0,0,0,0,0,0,0,0,0,0,0,0,0,0,0,0,0,0,0,0,0,0,0,0,0,0,0,0,0,0,0,0,0,0,0,0,0,0,0,0,0,0,0,0,0,0,0,0,0,0,0,0,0,0,0,0,
0,0,0,0,0,0,0,0,0,0,0,0,0,0,0,0,0,0,0,0,0,0,0,0,0,0,0,0,0,0,0,0,0,0,0,0,0,0,0,0,0,0,0,0,0,0,0,0,0,0,0,0,0,0,0,0,0,0,0,0,
0,0,0,0,0,0,0,0,0,0,0,0,0,0,0,0,0,0,0,0,0,0,0,0,0,0,0,0,0,0,0,0,0,0,0,0,0,0,0,0,0,0,0,0,0,0,0,0,0,0,0,0,0,0,0,0,0,0,0,0
</data>
 </layer>
 <layer id="7" name="Trees" width="60" height="60">
  <data encoding="csv">
2147485412,2147485411,2147485411,2147485411,2147485314,2147485411,2147485411,2147485411,2147485156,2147485155,2147485155,2147485412,2147485411,2147485410,2147485409,1539,1667,1539,1539,1540,1539,1540,1540,2147485411,2147485409,2147485154,2147485123,2147485124,2147485123,1763,1763,1762,1762,1762,1764,1765,1634,2147485348,2147485347,1761,1763,1763,1763,1763,1763,1763,1763,1763,1763,1762,1539,1540,2147485315,1762,1763,1763,1666,1667,1762,1763,
2147485411,2147485314,2147485313,2147485318,2147485317,2147485316,2147485315,2147485411,2147485411,2147485411,1761,1762,1763,1764,1764,1761,1762,1763,1764,1764,1764,1763,1764,1540,2147485411,2147485411,2147485409,2147485156,2147485155,1763,1763,1763,1762,1762,1762,1762,1765,1729,1730,1762,1763,1763,1763,1666,1763,1763,1763,1763,1763,1539,1571,1572,1762,1763,1763,1763,1763,1762,1763,1763,
2147485411,2147485346,2147485345,2147485350,2147485349,2147485348,2147485347,2147485315,2147485411,2147485411,1761,1762,1763,1764,1764,1761,1762,1763,1764,1763,1764,1764,1764,1763,1764,1539,1539,1540,1540,1762,1762,1763,1762,1762,1762,1763,1763,1761,1762,1763,1763,1763,1763,1763,1763,1763,1763,1763,1763,1571,1571,1572,1762,1762,1763,1762,1762,1763,1762,1763,
2147485411,2147485378,2147485377,2147485382,2147485381,2147485380,2147485379,2147485411,2147485411,2147485411,1761,1761,1762,1763,1761,1762,1763,1764,1764,1761,1762,1763,1764,1764,1764,1764,1764,1764,1572,1667,1668,1669,1670,1665,1666,1762,1762,1763,1763,1763,1763,1763,1763,1762,1763,1763,1667,1763,1763,1571,1572,1762,1763,1762,1762,1763,1763,1763,1762,1763,
2147485411,2147485410,2147485409,2147485414,2147485413,2147485412,2147485411,2147485411,2147485411,2147485411,2147485411,1761,1761,1761,1761,1761,1761,1761,1761,1761,1762,1763,1764,1762,1761,1762,1763,1764,1667,1699,1700,1701,1702,1697,1698,1762,1762,1763,1763,1763,1763,1762,1763,1763,1762,1666,1763,1763,1763,1763,1508,1539,1508,1539,1762,1762,1763,1762,1763,1763,
2147485411,2147485314,2147485315,2147485314,2147485410,2147485315,2147485411,2147485411,2147485411,2147485411,2147485315,1571,1761,1762,1763,1764,1764,1764,1762,1761,1761,1762,1763,1764,1761,1762,1763,1764,1764,1540,1732,1733,1734,1729,1730,1762,1762,1762,1763,1762,1763,1762,1763,1763,1763,1763,1666,1666,1763,1763,1508,1571,1540,1539,1539,1763,1763,1763,1763,1763,
2147485411,2147485411,2147485315,2147485411,2147485411,2147485411,2147485411,2147485411,2147485411,2147485411,2147485411,2147485314,1761,1762,1763,1764,1764,1764,1764,1764,1761,1761,1762,1763,1761,1761,1762,1763,1764,1572,1764,1765,1766,1761,1762,1763,1764,1762,1763,1762,1763,1762,1763,1762,1762,2147485314,2147485313,1665,1666,1763,1508,1508,1508,1571,1571,1763,1763,1763,1762,1763,
2147485411,2147485411,2147485411,2147485411,2147485411,2147485411,2147485411,2147485411,2147485411,2147485314,2147485314,2147485411,2147485411,1571,1572,1761,1761,1761,1761,1761,1762,1761,1761,1761,1761,1762,1763,1764,1571,1572,1763,1762,1762,1763,1762,1763,1762,1763,1763,1762,1763,1762,1762,1762,1762,2147485346,2147485345,1697,1698,1763,1540,1540,1540,1571,1571,1762,1763,1763,1763,1763,
2147485314,2147485315,2147485411,2147485411,2147485411,2147485411,2147485411,2147485411,2147485314,2147485313,1665,1666,2147485410,2147485410,1571,1761,1762,1763,1764,1763,1764,1764,1764,1572,1571,1571,1572,2147485410,2147485410,1763,1763,1762,1762,1762,1762,1763,1763,1763,1763,1762,1763,1763,1762,1763,1762,2147485378,2147485377,1729,1730,1763,1762,1762,1763,2147485314,2147485313,1669,1670,1763,2147485315,2147485314,
2147485411,2147485411,2147485411,2147485411,2147485411,2147485411,2147485411,2147485411,2147485346,2147485345,1697,1698,2147485410,2147485410,2147485410,2147485410,2147485411,2147485410,1761,1761,1762,1763,1764,1667,1667,2147485411,2147485410,2147485410,2147485188,1762,1763,1763,1763,1762,1763,1762,1762,1762,1763,1763,1762,1763,1762,1762,1762,2147485410,2147485409,1761,1762,1763,1762,1763,1763,2147485346,2147485345,2147485350,2147485349,2147485348,2147485347,2147485346,
2147485411,2147485411,2147485411,2147485411,2147485314,2147485410,2147485411,2147485411,2147485378,2147485377,1729,1730,2147485410,2147485411,2147485410,2147485411,2147485411,2147485410,2147485410,2147485188,1762,2147485410,2147485410,2147485410,2147485411,2147485410,2147485411,2147485410,2147485220,1762,1763,1669,1670,1665,1666,1667,1668,1539,1540,1762,1763,1763,1762,1763,1762,1763,1763,1763,1763,1762,1762,1763,1763,2147485378,2147485377,2147485382,2147485381,2147485380,2147485379,2147485378,
2147485411,2147485411,2147485410,2147485410,2147485411,2147485411,2147485411,2147485411,2147485410,2147485409,1761,1762,2147485410,2147485410,2147485410,2147485411,2147485410,2147485411,2147485410,2147485220,2147485411,2147485410,2147485411,2147485410,2147485411,2147485411,2147485410,2147485314,2147485313,0,0,0,1637,0,0,0,0,1697,1698,1762,1763,1666,1667,1605,1602,1604,1762,1763,1763,1763,1603,1604,1665,1666,2147485409,2147485414,2147485413,2147485412,2147485411,2147485410,
2147485410,2147485411,2147485410,2147485410,2147485410,2147485411,2147485411,2147485411,2147485411,2147485411,1539,1539,1539,1540,2147485410,2147485411,2147485411,2147485410,1667,1668,2147485318,2147485317,2147485316,1603,1604,1603,1604,1603,1604,0,0,0,0,0,1474,1475,1476,1477,1635,1635,1635,1635,1635,1637,1634,1602,1665,1666,1667,1605,1700,1700,1697,1665,1666,1763,1762,1762,1762,1763,
2147485347,2147485411,2147485411,2147485411,2147485410,2147485410,2147485410,2147485411,2147485411,2147485411,1571,1571,1571,1572,2147485315,2147485314,2147485411,2147485410,1699,1700,0,2147485349,2147485348,1635,1636,1635,1636,1635,1636,0,0,0,0,0,1506,1507,1508,1509,0,0,0,0,0,0,0,1634,1635,1635,1635,1637,0,0,1729,1697,1665,1666,1763,1762,1763,1763,
2147485285,2147485317,1665,2147485315,2147485314,1603,1604,2147485316,2147485315,2147485314,2147485313,1603,1603,1604,1669,1670,1669,1669,2147485350,0,0,0,0,0,0,0,0,0,1636,0,0,0,0,0,1570,1571,1572,1573,0,0,0,0,0,0,0,0,0,0,0,0,0,0,0,1729,1697,1665,1666,1762,1762,1763,
0,1634,1635,1636,1634,1635,1636,1636,1634,1634,1635,1635,1635,1636,1634,1635,1636,1701,0,0,0,0,0,0,0,1474,1475,2501,0,0,0,0,0,0,1602,1603,1604,1605,0,0,0,0,0,0,0,0,0,0,0,0,0,0,0,0,1729,1697,1665,1666,1763,1763,
0,0,0,0,0,0,0,0,0,0,0,0,0,0,0,0,0,0,0,0,0,0,0,0,0,1506,1507,2517,0,0,0,0,0,0,1634,1635,1636,1637,0,0,0,0,0,0,0,0,0,0,0,0,0,0,0,0,0,1729,1697,1602,1603,1604,
0,0,0,0,0,0,0,0,0,0,0,0,0,0,0,0,0,0,0,0,0,0,0,0,0,1602,1603,2565,0,0,0,0,0,0,0,0,0,0,0,0,0,0,0,0,0,0,0,0,0,0,0,0,0,0,0,0,1729,1634,1635,1636,
1475,1476,1477,0,0,0,0,0,0,0,0,0,0,0,0,0,0,0,0,0,0,0,0,0,0,1634,1635,1637,0,0,0,0,0,0,0,0,0,0,0,0,0,0,0,0,0,0,0,0,0,0,0,0,0,0,0,0,0,0,0,0,
1507,1508,1509,0,0,0,0,0,0,0,0,0,0,0,0,0,0,0,0,0,0,0,0,0,0,0,1671,1672,1673,1674,0,0,0,0,1543,1544,1545,1546,0,0,0,0,0,0,1671,1672,1673,1674,0,0,0,0,0,0,0,0,0,0,0,0,
1571,1572,1573,0,0,0,0,0,0,0,0,0,0,1479,1480,1481,1482,0,0,0,0,0,0,0,0,0,1703,1704,1705,1706,0,0,0,0,1575,1576,1577,1578,0,0,1479,1480,1479,1480,1703,1704,1705,1706,0,0,0,0,0,0,0,0,0,0,0,0,
1603,1604,1605,0,0,0,0,0,0,0,0,0,0,1511,1512,1513,1514,0,0,0,0,0,0,0,0,0,1735,1736,1737,1738,0,0,0,0,1607,1608,1609,1610,0,0,1511,1512,1511,1512,1735,1736,1737,1738,0,0,0,0,0,0,0,0,0,0,0,0,
1635,1636,1637,0,0,0,0,1474,1475,1476,1477,0,0,0,0,0,0,0,0,0,0,0,0,0,0,0,1767,1768,1769,1770,0,0,0,0,1639,1640,1641,1642,0,0,0,0,0,0,1767,1768,1769,1770,0,0,0,0,0,0,0,0,0,0,0,0,
0,0,0,0,0,0,0,1506,1507,1508,1509,0,0,0,0,0,2147485322,2147485321,2147485320,2147485319,0,0,0,0,0,1479,1480,0,0,0,0,0,0,0,1543,1544,1545,1546,0,0,0,0,0,0,0,0,0,0,0,0,0,0,0,0,0,0,0,0,1474,1475,
0,0,0,0,0,0,0,1570,1571,1572,1573,0,0,0,0,0,2147485354,2147485353,2147485352,2147485351,0,0,0,0,0,1511,1512,0,0,0,0,0,0,0,1575,1576,1577,1578,0,0,0,0,1474,0,0,0,0,0,0,0,0,0,0,0,0,0,0,0,1506,1507,
0,0,0,0,0,0,0,1602,1603,1604,1605,0,0,0,0,0,2147485386,2147485385,2147485384,2147485383,0,0,0,0,0,0,1543,1544,1545,1546,0,1474,1475,1476,1477,1608,1609,1610,0,0,0,0,0,0,0,0,0,0,0,0,0,0,0,0,0,0,0,0,1570,1571,
0,0,0,0,0,0,0,1634,1635,1636,1637,0,0,0,0,0,2147485418,2147485417,2147485416,2147485415,2147485193,2147485192,2147485191,0,0,0,1575,1576,1577,1578,0,1506,1507,1508,1509,1640,1641,1642,0,0,0,0,1481,1482,0,0,0,0,0,0,0,0,0,0,0,0,0,0,1602,1603,
0,0,0,0,0,0,0,0,0,0,0,0,0,0,0,0,0,0,0,2147485226,2147485225,2147485224,2147485223,0,0,0,1607,1608,1609,1610,0,1570,1571,1572,1573,0,0,0,0,0,0,0,1513,1514,1637,0,0,0,0,0,0,0,0,0,0,0,0,0,1634,1635,
0,0,0,0,0,0,0,0,0,0,0,1474,1475,2501,0,0,0,0,0,2147485258,2147485257,2147485256,2147485255,0,0,0,1639,1640,1641,1642,0,1602,1603,1604,1605,0,0,0,0,0,0,0,0,0,0,0,0,0,0,1671,1672,1673,1674,0,0,0,0,0,0,0,
1476,1477,0,0,0,0,0,0,0,0,0,1506,1507,2517,0,0,0,0,0,2147485290,2147485289,2147485288,2147485287,0,0,0,0,0,0,0,0,1634,1635,1636,1637,0,0,0,0,0,0,0,0,0,0,0,0,0,0,1703,1704,1705,1706,0,0,0,0,0,0,0,
1508,1509,0,0,0,0,0,0,0,0,0,1602,1603,2565,0,0,0,0,0,0,0,0,0,0,0,0,0,0,0,0,0,0,0,0,0,0,0,0,0,0,0,0,0,0,0,0,0,0,0,1735,1736,1737,1738,0,0,0,0,0,0,0,
1572,1573,0,0,0,0,0,0,0,0,0,1634,1635,1637,0,0,0,0,0,0,0,0,0,0,1474,1475,2501,0,0,0,0,0,0,0,0,0,0,0,0,0,0,0,0,0,0,0,0,0,0,1767,1768,1769,1770,0,0,0,0,0,0,0,
1604,1605,0,0,0,0,0,0,0,0,0,0,0,0,0,0,0,0,0,0,0,0,0,0,1506,1507,2517,0,0,0,0,0,0,0,2147485322,2147485321,2147485320,2147485319,0,0,0,0,0,0,2147485194,2147485193,2147485192,2147485191,0,0,0,0,0,0,2147485320,2147485319,0,0,0,0,
1636,1637,0,0,0,0,0,0,0,0,0,0,0,0,1479,1480,1481,1482,0,0,0,0,0,0,1602,1603,2565,0,0,0,0,0,0,0,2147485354,2147485353,2147485352,2147485351,2147485128,2147485127,2147485128,2147485127,0,0,2147485226,2147485225,2147485224,2147485223,0,0,0,0,0,0,0,0,0,0,0,0,
0,0,0,0,0,0,0,0,0,0,0,0,0,0,1511,1512,1513,1514,0,0,0,0,0,0,1634,1635,1637,0,0,0,0,0,0,0,2147485386,2147485385,2147485384,2147485383,2147485160,2147485159,2147485160,2147485159,0,0,2147485258,2147485257,2147485256,2147485255,0,0,0,0,0,0,0,0,0,0,0,0,
0,0,0,0,0,0,0,0,0,0,1671,1672,1673,1674,0,0,0,0,0,0,0,0,0,0,0,0,1479,1480,1481,1482,0,0,0,0,2147485418,2147485417,2147485416,2147485415,0,0,0,0,0,0,2147485290,2147485289,2147485288,2147485287,0,0,0,0,2147485418,0,0,0,0,0,0,0,
0,0,0,0,0,0,0,0,0,0,1703,1704,1705,1706,0,0,0,0,0,0,0,0,0,0,0,0,1511,1512,1513,1514,0,0,0,0,0,0,0,0,0,0,0,0,0,0,0,0,0,0,0,0,0,0,0,0,0,0,0,0,0,0,
0,0,1474,1475,2501,0,0,0,0,0,1735,1736,1737,1738,0,0,0,0,0,0,0,0,0,0,0,0,1543,1544,1545,1546,0,0,0,0,0,0,0,0,0,0,0,0,0,0,0,0,0,0,0,0,0,0,0,0,0,0,0,0,0,0,
0,0,1506,1507,2517,0,0,0,0,0,1767,1768,1769,1770,0,0,1474,1475,2501,0,0,0,0,0,0,0,1575,1576,1577,1578,0,0,0,0,0,0,0,0,0,0,0,0,0,0,0,0,0,0,0,0,0,0,0,0,0,0,0,0,0,0,
0,0,1602,1603,2565,0,0,0,0,0,0,0,0,0,0,0,1506,1507,2517,0,0,0,0,0,0,0,1607,1608,1609,1610,0,0,0,0,0,0,0,0,0,0,0,0,0,0,0,0,0,0,0,0,0,0,0,0,0,0,0,0,0,0,
0,0,1634,1635,1637,0,0,0,0,0,0,0,0,0,0,0,1602,1603,2565,0,0,0,0,0,0,0,1639,1640,1641,1642,0,0,0,0,0,0,0,0,0,0,0,0,0,0,0,0,0,0,0,0,0,0,0,0,0,0,0,0,0,0,
0,0,0,0,0,0,0,0,0,0,0,0,0,0,1733,1734,1634,1635,1637,0,0,0,0,0,0,0,1671,1672,1673,1674,0,0,0,0,0,0,0,0,0,0,0,0,0,0,0,0,0,0,0,0,0,0,0,0,0,0,0,0,0,0,
0,0,0,0,0,0,0,0,0,0,0,0,0,1734,1733,1734,0,0,0,0,0,0,0,0,0,0,1703,1704,1705,1706,0,0,0,0,0,0,0,0,0,0,0,0,0,0,0,0,0,1474,1475,2501,0,0,0,0,0,0,0,0,0,0,
0,0,0,0,0,0,1475,1476,0,0,0,0,1734,1766,1765,1766,1731,1732,1733,0,0,0,0,0,0,0,1735,1736,1737,1738,0,0,0,0,0,0,0,0,0,0,0,0,0,0,0,0,0,1506,1507,2517,0,0,0,0,0,0,0,0,0,0,
0,0,0,0,0,1729,1730,1731,1732,1475,1475,1476,1766,1763,1763,1763,1763,1764,1765,1732,1733,0,0,0,0,0,1767,1768,1769,1770,0,0,0,0,0,0,0,0,0,0,0,0,0,0,0,0,0,1602,1603,2565,0,0,0,0,0,0,0,0,0,0,
0,0,0,1474,1729,1761,1762,1763,1764,1507,1507,1508,1763,1763,1763,1666,1763,1763,1763,1764,1765,0,0,0,0,0,0,0,0,0,0,0,0,0,0,0,0,0,0,0,0,0,0,0,0,0,0,1634,1635,1637,0,0,0,0,0,0,0,0,0,0,
1475,1476,1475,1506,1761,1763,1763,1667,1763,1763,1763,1763,1763,1667,1668,1669,1670,1665,1666,1763,1667,1731,1732,1733,0,0,0,0,0,0,0,0,0,0,0,0,0,0,0,0,0,0,0,0,0,0,0,0,1475,1476,1475,1476,1475,1476,1477,0,0,0,0,0,
1507,1508,1761,1763,1763,1763,1763,1763,1763,1763,1763,1763,1667,1699,1700,1701,1702,1697,1698,1763,1763,1763,1764,1765,0,0,0,0,0,0,0,0,0,0,0,0,0,0,0,0,0,0,0,0,0,1474,1475,1729,1507,1508,1507,1508,1507,1508,1509,0,0,0,0,0,
1539,1540,1762,1763,1763,1763,1666,1763,1763,1763,1763,1763,1763,1731,1732,1733,1734,1729,1730,1763,1539,1539,1539,1540,1731,1732,1733,0,0,0,0,0,0,0,0,0,0,0,0,0,0,0,0,0,0,1506,1762,1761,1762,1763,1763,1762,1762,1762,1763,1765,1732,0,0,0,
1539,1540,1763,1763,1763,1763,1763,1763,1763,1763,1763,1763,1763,1763,1764,1765,1766,1761,1762,1763,1571,1571,1539,1540,1763,1764,1541,0,0,0,0,0,0,0,0,0,1474,1475,1476,1477,0,0,0,1729,1762,1761,1763,1762,1763,1763,1763,1763,1762,1762,1762,1763,1765,1477,0,0,
1571,1572,1763,1763,1763,1763,1762,1763,1763,1667,1763,1763,1763,1763,1667,1762,1666,1667,1666,1763,1763,1667,1668,1665,1665,1604,1605,0,0,0,0,0,0,0,0,0,1506,1507,1508,1509,0,0,1538,1761,1762,1763,1763,1763,1763,1763,1763,1763,1763,1762,1762,1762,1762,1765,1477,0,
1666,1762,1763,1763,1762,1763,1763,1762,1666,1763,1763,1763,1763,1763,1763,1763,1763,1667,1763,1763,1763,1699,1700,1697,1697,1636,1637,0,0,0,0,0,0,0,0,0,1570,1571,1572,1573,0,1474,1570,1762,1762,1762,1762,1762,1762,1762,1762,1762,1763,1762,1762,1762,1763,1763,1765,1766,
1698,1762,1762,1763,1762,1763,1763,1763,1763,1666,1666,1763,1763,1763,1763,1763,1763,1763,1763,1763,1763,1731,1732,1734,1475,1477,0,0,1474,1475,2501,0,0,0,0,0,1602,1603,1604,1605,0,1506,1763,1670,1669,1670,1669,1670,1665,1666,1667,1668,1669,1670,1665,1666,1762,1762,1763,1763,
1730,1762,1762,1763,1762,1763,1762,1762,2147485314,2147485313,1665,1666,1763,1763,1763,1763,1763,1763,1667,1666,1763,1764,1765,1766,1764,1509,0,0,1506,1507,2517,0,0,0,0,0,1634,1635,1636,1637,0,1538,1699,1702,1701,1702,839,840,1697,1698,1699,1700,1701,1702,1697,1698,1762,1762,1763,1763,
1762,1762,1762,1763,1762,1762,1762,1762,2147485346,2147485345,1697,1698,1763,1763,1763,1763,1763,1763,1763,1763,1667,1763,1763,1763,1763,1605,0,0,1602,1603,2565,0,0,0,0,0,0,1477,0,0,1766,1762,1731,1477,0,0,871,872,1729,1730,1731,1732,1733,1734,1729,1730,1762,1762,1762,1763,
1540,1762,1762,1763,1763,1762,1763,1762,2147485378,2147485377,1729,1730,1763,1763,1762,1666,1763,1763,1763,1763,1763,1763,1763,1699,1700,1637,0,0,1634,1635,1637,1475,0,0,1766,1731,1732,1733,1734,1766,1762,1762,1763,1731,1732,1733,1734,1729,1761,1762,1763,1764,1765,1766,1761,1762,1763,1764,1762,1763,
1572,1762,1763,1762,1763,1762,1762,1762,2147485410,2147485409,1761,1762,1763,1763,1763,1763,1762,1762,1763,1763,1763,1763,1763,1700,0,0,0,0,0,0,1506,1507,1765,1766,1763,1763,1764,1765,1766,1762,1762,1763,1763,1763,1764,1765,1766,1763,1763,1763,1762,1763,1762,1762,1763,1762,1763,1762,1763,1763,
1665,1666,1762,1763,1763,1762,1763,1762,1763,1763,1763,1763,1763,1763,1763,1762,1762,1762,1763,1762,1763,1699,1700,0,0,0,0,0,0,0,1538,1666,1667,1667,1666,1667,1666,1667,1667,1762,1763,1763,1763,1763,1763,1763,1763,1763,1762,1763,1763,1763,1762,1762,1762,1762,1763,1763,1763,1763,
1697,1698,1762,1763,1666,1667,1668,1669,1670,1762,1763,1763,1763,1762,1762,1762,1763,1763,1763,1699,1700,1636,0,0,0,0,0,0,0,0,1602,1665,1666,1667,1668,1669,1670,1665,1666,1762,1763,1763,1762,1762,1762,1762,1762,1762,1762,1762,1762,1763,1763,1763,1762,1763,1762,1762,1762,1763,
1729,1730,1669,1670,1763,1699,1700,1701,1702,1665,1666,1667,1668,1669,1665,1666,1667,1668,1669,1637,1732,0,0,0,0,0,0,0,0,0,1634,1697,1698,1699,1700,1701,1702,1697,1698,1665,1666,1667,1668,1669,1670,1665,1666,1667,1665,1762,1762,1763,1669,1670,1665,1666,1667,1668,1669,1670
</data>
 </layer>
 <layer id="8" name="Trees2" width="60" height="60">
  <data encoding="csv">
0,0,0,0,0,0,0,0,0,0,0,0,0,0,0,0,0,0,0,0,0,0,0,0,0,0,0,0,0,0,0,0,0,0,0,0,0,0,0,0,0,0,0,0,0,0,0,0,0,0,0,0,0,0,0,0,0,0,0,0,
0,0,0,0,0,0,0,0,0,0,0,0,0,0,0,0,0,0,0,0,0,0,0,0,0,0,0,0,0,0,0,0,0,0,0,0,0,0,0,0,0,0,0,0,0,0,0,0,0,0,0,0,0,0,0,0,0,0,0,0,
0,0,0,0,0,0,0,0,0,0,0,0,0,0,0,0,0,0,0,0,0,0,0,0,0,0,0,0,0,0,0,0,0,0,0,0,0,0,0,0,0,0,0,0,0,0,0,0,0,0,0,0,0,0,0,0,0,0,0,0,
0,0,0,0,0,0,0,0,0,0,0,0,0,0,0,0,0,0,0,0,0,0,0,0,0,0,0,0,0,0,0,0,0,0,0,0,0,0,0,0,0,0,0,0,0,0,0,0,0,0,0,0,0,0,0,0,0,0,0,0,
0,0,0,0,0,0,0,0,0,0,0,0,0,0,0,0,0,0,0,0,0,0,0,0,0,0,0,0,0,0,0,0,0,0,0,0,0,0,0,0,0,0,0,0,0,0,0,0,0,0,0,0,0,0,0,0,0,0,0,0,
0,0,0,0,0,0,0,0,0,0,0,0,0,0,0,0,0,0,0,0,0,0,0,0,0,0,0,0,0,0,0,0,0,0,0,0,0,0,0,0,0,0,0,0,0,0,0,0,0,0,0,0,0,0,0,0,0,0,0,0,
0,0,0,0,0,0,0,0,0,0,0,0,0,0,0,0,0,0,0,0,0,0,0,0,0,0,0,0,0,0,0,0,0,0,0,0,0,0,0,0,0,0,0,0,0,0,0,0,0,0,0,0,0,0,0,0,0,0,0,0,
0,0,0,0,0,0,0,0,0,0,0,0,0,0,0,0,0,0,0,0,0,0,0,0,0,0,0,0,0,0,0,0,0,0,0,0,0,0,0,0,0,0,0,0,0,0,0,0,0,0,0,0,0,0,0,0,0,0,0,0,
0,0,0,0,0,0,0,0,0,0,0,0,0,0,0,0,0,0,0,0,0,0,0,0,0,0,0,0,0,0,0,0,0,0,0,0,0,0,0,0,0,0,0,0,0,0,0,0,0,0,0,0,0,0,0,0,0,0,0,0,
0,0,0,0,0,0,0,0,0,0,0,0,0,0,0,0,0,0,0,0,0,0,0,0,0,0,0,0,0,0,0,0,0,0,0,0,0,0,0,0,0,0,0,0,0,0,0,0,0,0,0,0,0,0,0,0,0,0,0,0,
0,0,0,0,0,0,0,0,0,0,0,0,0,0,0,0,0,0,0,0,0,0,0,0,0,0,0,0,0,0,0,0,0,0,0,0,0,0,0,0,0,0,0,0,0,0,0,0,0,0,0,0,0,0,0,0,0,0,0,0,
0,0,0,0,0,0,0,0,0,0,0,0,0,0,0,0,0,0,0,0,0,0,0,0,0,0,0,0,0,0,0,0,0,0,0,0,0,0,0,0,0,0,0,0,0,0,0,0,0,0,0,0,0,0,0,0,0,0,0,0,
0,0,0,0,0,0,0,0,0,0,0,0,0,0,0,0,0,0,0,0,0,0,0,0,0,0,0,0,0,0,0,0,0,0,0,0,0,0,0,0,0,0,0,0,0,0,0,0,0,0,0,0,0,0,0,0,0,0,0,0,
0,0,0,0,0,0,0,0,0,0,0,0,0,0,0,0,0,0,0,0,0,0,0,0,0,0,0,0,0,0,0,0,0,0,0,0,0,0,0,0,0,0,0,0,0,0,0,0,0,0,0,0,0,0,0,0,0,0,0,0,
0,0,0,0,0,0,0,0,0,0,0,0,0,0,0,0,0,0,0,0,0,0,0,0,0,0,0,0,0,0,0,0,0,0,0,0,0,0,0,0,0,0,0,0,0,0,0,0,0,0,0,0,0,0,0,0,0,0,0,0,
0,0,0,0,0,0,0,0,0,0,0,0,0,0,0,0,0,0,0,0,0,0,0,0,0,0,0,0,0,0,0,0,0,0,0,0,0,0,0,0,0,0,0,0,0,0,0,0,0,0,0,0,0,0,0,0,0,0,0,0,
0,0,0,0,0,0,0,0,0,0,0,0,0,0,0,0,0,0,0,0,0,0,0,0,0,0,0,0,0,0,0,0,0,0,0,0,0,0,0,0,0,0,0,0,0,0,0,0,0,0,0,0,0,0,0,0,0,0,0,0,
0,0,0,0,0,0,0,0,0,0,0,0,0,0,0,0,0,0,0,0,0,0,1474,1475,2501,0,0,0,0,0,0,0,0,0,0,0,0,0,0,0,0,0,0,0,0,0,0,0,0,0,0,0,0,0,0,0,0,0,0,0,
0,0,0,0,0,0,0,0,0,0,0,0,0,0,0,0,0,0,0,0,0,0,1506,1507,2517,0,0,0,0,0,0,0,0,0,0,0,0,0,0,0,0,0,0,0,0,0,0,0,0,0,0,0,0,0,0,0,0,0,0,0,
0,0,0,0,0,0,0,0,0,0,0,0,0,0,0,0,0,0,0,0,0,0,1602,1603,2565,0,0,0,0,0,0,0,0,0,0,0,0,0,0,0,0,0,0,0,0,0,0,0,0,0,0,0,0,0,0,0,0,0,0,0,
0,0,0,0,0,0,0,0,0,0,0,0,0,0,0,0,0,0,0,0,0,0,1634,1635,1637,0,0,0,0,0,0,0,0,0,0,0,0,0,0,0,0,0,0,0,0,0,0,0,0,0,0,0,0,0,0,0,0,0,0,0,
0,0,0,0,0,0,0,0,0,0,0,0,0,0,0,0,0,0,0,0,0,0,0,0,0,0,0,0,0,0,0,0,0,0,0,0,0,0,0,0,0,0,0,0,0,0,0,0,0,0,0,0,0,0,0,0,0,0,0,0,
0,0,0,0,0,0,0,0,0,0,0,0,0,0,0,0,0,0,0,0,0,0,0,0,0,0,0,0,0,0,0,0,0,0,0,0,0,0,0,0,0,0,0,0,0,0,0,0,0,0,0,0,0,0,0,0,0,0,0,0,
0,0,0,0,0,0,0,0,0,0,0,0,0,0,0,0,0,0,0,0,0,0,0,0,0,0,0,0,0,0,0,0,0,0,0,0,0,0,0,0,0,0,0,0,0,0,0,0,0,0,0,0,0,0,0,0,0,0,0,0,
0,0,0,0,0,0,0,0,0,0,0,0,0,0,0,0,0,0,0,0,0,0,0,0,0,0,0,0,0,0,0,0,0,0,0,0,0,0,0,0,0,0,0,0,0,0,0,0,0,0,0,0,0,0,0,0,0,0,0,0,
0,0,0,0,0,0,0,0,0,0,0,0,0,0,0,0,0,0,0,0,0,0,0,0,0,0,0,0,0,0,0,0,0,0,0,0,0,0,0,0,0,0,0,1474,1475,2501,0,0,0,0,0,0,0,0,0,0,0,0,0,0,
0,0,0,0,0,0,0,0,0,0,0,0,0,0,0,0,0,0,0,0,0,0,0,0,0,0,0,0,0,0,0,0,0,0,0,0,0,0,0,0,0,0,0,1506,1507,2517,0,0,0,0,0,0,0,0,0,0,0,0,0,0,
0,0,0,0,0,0,0,0,0,0,0,0,0,0,0,0,0,0,0,0,0,0,0,0,0,0,0,0,0,0,0,0,0,0,0,0,0,0,0,0,0,0,0,1602,1603,2565,0,0,0,0,0,0,0,0,0,0,0,0,0,0,
0,0,0,0,0,0,0,0,0,0,0,0,0,0,0,0,0,0,0,0,0,0,0,0,0,0,0,0,0,0,0,0,0,0,0,0,0,0,0,0,0,0,0,1634,1635,1637,0,0,0,0,0,0,0,0,0,0,0,0,0,0,
0,0,0,0,0,0,0,0,0,0,0,0,0,0,0,0,0,0,0,0,0,0,0,0,0,0,0,0,0,0,2147485130,2147485129,2147485128,2147485127,0,0,0,0,0,0,0,0,0,0,0,0,0,0,0,0,0,0,0,0,0,0,0,0,0,0,
0,0,0,0,0,0,0,0,0,0,0,0,0,0,0,0,0,0,0,0,0,0,0,0,0,0,0,0,0,0,2147485162,2147485161,2147485160,2147485159,0,0,0,0,0,0,0,0,0,0,0,0,0,0,0,0,0,0,0,0,0,0,0,0,0,0,
0,0,0,0,0,0,0,0,0,0,0,0,0,0,0,0,0,0,0,0,0,0,0,0,0,0,0,0,0,0,2147485194,2147485193,2147485192,2147485191,0,0,0,0,0,0,0,0,0,0,0,0,0,0,0,0,0,0,0,0,0,0,0,0,0,0,
0,0,0,0,0,0,0,0,0,0,0,0,0,0,0,0,0,0,0,0,0,0,0,0,0,0,0,0,0,0,2147485226,2147485225,2147485224,2147485223,0,0,0,0,0,0,0,0,0,0,0,0,0,0,0,0,0,0,0,0,0,0,0,0,0,0,
0,0,0,0,0,0,0,0,0,0,0,0,0,0,0,0,0,0,0,0,0,0,0,0,0,0,0,0,0,0,2147485258,2147485257,2147485256,2147485255,0,0,0,0,0,0,0,0,0,0,0,0,0,0,0,0,0,0,0,0,0,0,0,0,0,0,
0,0,0,0,0,0,0,0,0,0,0,0,0,0,0,0,0,0,0,0,0,0,0,0,0,0,0,0,0,0,2147485290,2147485289,2147485288,2147485287,0,0,0,0,0,0,0,0,0,0,0,0,0,0,0,0,0,0,0,0,0,0,0,0,0,0,
0,0,0,0,0,0,0,0,0,0,0,0,0,0,0,0,0,0,0,0,0,0,0,0,0,0,0,0,0,0,2147485322,2147485321,2147485320,2147485319,0,0,0,0,0,0,0,0,0,0,0,0,0,0,0,0,0,0,0,0,0,0,0,0,0,0,
0,0,0,0,0,0,0,0,0,0,0,0,0,0,0,0,0,0,0,0,0,0,0,0,0,0,0,0,0,0,2147485354,2147485353,2147485352,2147485351,0,0,0,0,0,0,0,0,0,0,0,0,0,0,0,0,0,0,0,0,0,0,0,0,0,0,
0,0,0,0,0,0,0,0,0,0,0,0,0,0,0,0,0,0,0,0,0,0,0,0,0,0,0,0,0,0,2147485386,2147485385,2147485384,2147485383,0,0,0,0,0,0,0,0,0,0,0,0,0,0,0,0,0,0,0,0,0,0,0,0,0,0,
0,0,0,0,0,0,0,0,0,0,0,0,0,0,0,0,0,0,0,0,0,0,0,0,0,0,0,0,0,0,2147485418,2147485417,2147485416,2147485415,0,0,0,0,0,0,0,0,0,0,0,0,0,0,0,0,0,0,0,0,0,0,0,0,0,0,
0,0,0,0,0,0,0,0,0,0,0,0,0,0,0,0,0,0,0,0,0,0,0,0,0,0,0,0,0,0,0,0,0,0,0,0,0,0,0,0,0,0,0,0,0,0,0,0,0,0,0,0,0,0,0,0,0,0,0,0,
0,0,0,0,0,0,0,0,0,0,0,0,0,0,0,0,0,0,0,0,0,0,0,0,0,0,0,0,0,0,0,0,0,0,0,0,0,0,0,0,0,0,0,0,0,0,0,0,0,0,0,0,0,0,0,0,0,0,0,0,
0,0,0,0,0,0,0,0,0,0,0,0,0,0,0,0,0,0,0,0,0,0,0,0,0,0,0,0,0,0,0,0,0,0,0,0,0,0,0,0,0,0,0,0,0,0,0,0,0,0,0,0,0,0,0,0,0,0,0,0,
0,0,0,0,0,0,0,0,0,0,0,0,0,0,0,0,0,0,0,0,0,0,0,0,0,0,0,0,0,0,0,0,0,0,0,0,0,0,0,0,0,0,0,0,0,0,0,0,0,0,0,0,0,0,0,0,0,0,0,0,
0,0,0,0,0,0,0,0,0,0,0,0,0,0,0,0,0,0,0,0,0,0,0,0,0,0,0,0,0,0,0,0,0,0,0,0,0,0,0,0,0,0,0,0,0,0,0,0,0,0,0,0,0,0,0,0,0,0,0,0,
0,0,0,0,0,0,0,0,0,0,0,0,0,0,0,0,0,0,0,0,0,0,0,0,0,0,0,0,0,0,0,0,0,0,0,0,0,0,0,0,0,0,0,0,0,0,0,0,0,0,0,0,0,0,0,0,0,0,0,0,
0,0,0,0,0,0,0,0,0,0,0,0,0,0,0,0,0,0,0,0,0,0,0,0,0,0,0,0,0,0,0,0,0,0,0,0,0,0,0,0,0,0,0,0,0,0,0,0,0,0,0,0,0,0,0,0,0,0,0,0,
0,0,0,0,0,0,0,0,0,0,0,0,0,0,0,0,0,0,0,0,0,0,0,0,0,0,0,0,0,0,0,0,0,0,0,0,0,0,0,0,0,0,0,0,0,0,0,0,0,0,0,0,0,0,0,0,0,0,0,0,
0,0,0,0,0,0,0,0,0,0,0,0,0,0,0,0,0,0,0,0,0,0,0,0,0,0,0,0,0,0,0,0,0,0,0,0,0,0,0,0,0,0,0,0,0,0,0,0,0,0,0,0,0,0,0,0,0,0,0,0,
0,0,0,0,0,0,0,0,0,0,0,0,0,0,0,0,0,0,0,0,0,0,0,0,0,0,0,0,0,0,0,0,0,0,0,0,0,0,0,0,0,0,0,0,0,0,0,0,0,0,0,0,0,0,0,0,0,0,0,0,
0,0,0,0,0,0,0,0,0,0,0,0,0,0,0,0,0,0,0,0,0,0,0,0,0,0,0,0,0,0,0,0,0,0,0,0,0,0,0,0,0,0,0,0,0,0,0,0,0,0,0,0,0,0,0,0,0,0,0,0,
0,0,0,0,0,0,0,0,0,0,0,0,0,0,0,0,0,0,0,0,0,0,0,0,0,0,0,0,0,0,0,0,0,0,0,0,0,0,0,0,0,0,0,0,0,0,0,0,0,0,0,0,0,0,0,0,0,0,0,0,
0,0,0,0,0,0,0,0,0,0,0,0,0,0,0,0,0,0,0,0,0,0,0,0,0,0,0,0,0,0,0,0,0,0,0,0,0,0,0,0,0,0,0,0,0,0,0,0,0,0,0,0,0,0,0,0,0,0,0,0,
0,0,0,0,0,0,0,0,0,0,0,0,0,0,0,0,0,0,0,0,0,0,0,0,0,0,0,0,0,0,0,0,0,0,0,0,0,0,0,0,0,0,0,1671,1672,1673,1674,0,0,0,0,0,0,0,0,0,0,0,0,0,
0,0,0,0,0,0,0,0,0,0,0,0,0,0,0,0,0,0,0,0,0,0,0,0,0,0,0,0,0,0,0,0,0,0,0,0,0,0,0,0,0,0,0,1703,1704,1705,1706,0,0,0,0,0,0,0,0,0,0,0,0,0,
0,0,0,0,0,0,0,0,0,0,0,0,0,0,0,0,0,0,0,0,0,0,0,0,0,0,0,0,0,0,0,0,0,0,0,0,0,0,0,0,0,0,0,1735,1736,1737,1738,0,0,0,0,0,0,0,0,0,0,0,0,0,
0,0,0,0,0,0,0,0,0,0,0,0,0,0,0,0,0,0,0,0,0,0,0,0,0,0,0,0,0,0,0,0,0,0,0,0,0,0,0,0,0,0,0,1767,1768,1769,1770,0,0,0,0,0,0,0,0,0,0,0,0,0,
0,0,0,0,0,0,0,0,0,0,0,0,0,0,0,0,0,0,0,0,0,0,0,0,0,0,0,0,0,0,0,0,0,0,0,0,0,0,0,0,0,0,0,0,0,0,0,0,0,0,0,0,0,0,0,0,0,0,0,0,
0,0,0,0,0,0,0,0,0,0,0,0,0,0,0,0,0,0,0,0,0,0,0,0,0,0,0,0,0,0,0,0,0,0,0,0,0,0,0,0,0,0,0,0,0,0,0,0,0,0,0,0,0,0,0,0,0,0,0,0,
0,0,0,0,0,0,0,0,0,0,0,0,0,0,0,0,0,0,0,0,0,0,0,0,0,0,0,0,0,0,0,0,0,0,0,0,0,0,0,0,0,0,0,0,0,0,0,0,0,0,0,0,0,0,0,0,0,0,0,0,
0,0,0,0,0,0,0,0,0,0,0,0,0,0,0,0,0,0,0,0,0,0,0,0,0,0,0,0,0,0,0,0,0,0,0,0,0,0,0,0,0,0,0,0,0,0,0,0,0,0,0,0,0,0,0,0,0,0,0,0
</data>
 </layer>
 <layer id="5" name="Houses" width="60" height="60">
  <data encoding="csv">
0,0,0,0,0,0,0,0,0,0,0,0,0,0,0,0,0,0,0,0,0,0,0,0,0,0,0,0,0,0,0,0,0,0,0,0,0,0,0,0,0,0,0,0,0,0,0,0,0,0,0,0,0,0,0,0,0,0,0,0,
0,0,0,0,0,0,0,0,0,0,0,0,0,0,0,0,0,0,0,0,0,0,0,0,0,0,0,0,0,0,0,0,0,0,0,0,0,0,0,0,0,0,0,0,0,0,0,0,0,0,0,0,0,0,0,0,0,0,0,0,
0,0,0,0,0,0,0,0,0,0,0,0,0,0,0,0,0,0,0,0,0,0,0,0,0,0,0,0,0,0,0,0,0,0,0,0,0,0,0,0,0,0,0,0,0,0,0,0,0,0,0,0,0,0,0,0,0,0,0,0,
0,0,0,0,0,0,0,0,0,0,0,0,0,0,0,0,0,0,0,0,0,0,0,0,0,0,0,0,0,0,0,0,0,0,0,0,0,0,0,0,0,0,0,0,0,0,0,0,0,0,0,0,0,0,0,0,0,0,0,0,
0,0,0,0,0,0,0,0,0,0,0,0,0,0,0,0,0,0,0,0,0,0,0,0,0,0,0,0,0,0,0,0,0,0,0,0,0,0,0,0,0,0,0,0,0,0,0,0,0,0,0,0,0,0,0,0,0,0,0,0,
0,0,0,0,0,0,0,0,0,0,0,0,0,0,0,0,0,0,0,0,0,0,0,0,0,0,0,0,0,0,0,0,0,0,0,0,0,0,0,0,0,0,0,0,0,0,0,0,0,0,0,0,0,0,0,0,0,0,0,0,
0,0,0,0,0,0,0,0,0,0,0,0,0,0,0,0,0,0,0,0,0,0,0,0,0,0,0,0,0,0,0,0,0,0,0,0,0,0,0,0,0,0,0,0,0,0,0,0,0,0,0,0,0,0,0,0,0,0,0,0,
0,0,0,0,0,0,0,0,0,0,0,0,0,0,0,0,0,0,0,0,0,0,0,0,0,0,0,0,0,0,0,0,0,0,0,0,0,0,0,0,0,0,0,0,0,0,0,0,0,0,0,0,0,0,0,0,0,0,0,0,
0,0,0,0,0,0,0,0,0,0,0,0,0,0,0,0,0,0,0,0,0,0,0,0,0,0,0,859,860,861,862,863,864,0,0,0,0,0,0,0,0,0,0,0,0,0,0,0,0,0,0,0,0,0,0,0,0,0,0,0,
0,0,0,0,0,0,0,0,0,0,0,0,0,0,0,0,0,0,0,0,0,0,0,0,0,0,0,891,892,893,894,895,896,0,0,0,0,0,0,0,0,0,0,0,0,0,0,0,0,0,0,0,0,0,0,0,0,0,0,0,
0,0,0,0,0,0,0,0,0,0,0,0,0,0,0,0,0,0,0,0,0,0,0,0,0,0,0,923,924,925,926,927,928,0,0,0,0,0,0,0,0,0,0,0,0,0,0,0,0,0,0,0,0,0,0,0,0,0,0,0,
0,0,0,0,0,0,0,0,0,0,0,0,0,0,0,0,0,0,0,0,0,0,0,0,0,0,0,955,956,957,958,959,960,0,0,0,0,0,0,0,0,0,0,0,0,0,0,0,0,0,0,0,0,0,0,0,0,0,0,0,
0,0,0,0,0,0,0,0,0,0,0,0,0,0,0,0,0,0,0,0,0,0,0,0,0,0,0,987,988,989,990,991,992,0,0,0,0,0,0,0,0,0,0,0,0,0,0,0,0,0,0,0,0,0,0,0,0,0,0,0,
0,0,0,0,0,0,0,0,0,0,0,0,0,0,0,0,0,0,0,0,0,0,0,0,0,0,0,1019,1020,1021,1022,1023,1024,0,0,0,0,0,0,0,0,0,0,0,0,0,0,0,0,0,0,0,0,0,0,0,0,0,0,0,
0,0,0,0,0,0,0,0,0,0,0,0,0,0,0,0,0,0,0,0,0,0,0,0,0,0,0,1051,1052,1053,1054,1055,1056,0,0,0,0,0,0,0,0,0,0,0,0,0,0,0,0,0,0,0,0,0,0,0,0,0,0,0,
0,0,0,0,0,0,0,0,0,0,0,0,0,0,0,0,0,0,0,0,0,0,0,0,0,0,0,1083,1084,1085,1086,1087,1088,0,0,0,0,0,0,0,0,0,0,0,0,0,0,0,0,0,0,0,0,0,0,0,0,0,0,0,
0,0,0,0,0,0,0,0,0,0,0,0,0,0,0,0,0,0,0,0,0,0,0,0,0,0,0,0,0,0,0,0,0,0,0,0,0,0,0,0,0,0,0,0,0,0,0,0,0,0,0,0,0,0,0,0,0,0,0,0,
0,0,0,0,0,0,0,0,0,0,0,0,0,0,0,0,0,0,0,0,0,0,0,0,0,0,0,0,0,0,0,0,0,0,0,0,0,0,0,0,0,0,0,0,0,0,0,1095,1096,1097,1098,1099,1100,0,0,0,0,0,0,0,
0,0,0,0,0,0,0,0,0,0,0,0,0,0,0,0,0,0,0,0,0,0,0,0,0,0,0,0,0,0,0,0,0,0,0,0,0,0,0,0,0,0,0,0,0,0,0,1127,1128,1129,1130,1131,1132,0,0,0,0,0,0,0,
0,0,0,0,0,0,0,0,0,0,0,0,0,0,0,0,0,0,0,0,0,0,0,0,0,0,0,0,0,0,0,0,0,0,0,0,0,0,0,0,0,0,0,0,0,0,0,1159,1160,1161,1162,1163,1164,0,0,0,0,0,0,0,
0,0,0,0,0,0,0,0,0,0,0,0,0,0,0,0,0,0,0,0,0,0,0,0,0,0,0,0,0,0,0,0,0,0,0,0,0,0,0,0,0,0,0,0,0,0,0,1191,1192,1193,1194,1195,1196,0,0,0,0,0,0,0,
0,0,0,0,0,0,0,0,0,0,0,0,0,0,0,0,0,0,0,0,0,0,0,0,0,0,0,0,0,0,0,0,0,0,0,0,0,0,0,0,0,0,0,0,0,0,0,1223,1224,1225,1226,1227,1228,0,0,0,0,0,0,0,
0,0,0,0,0,0,0,0,0,0,0,0,0,0,0,0,0,0,0,0,0,0,0,0,0,0,0,0,0,0,0,0,0,0,0,0,0,0,0,0,0,0,0,0,0,0,0,1255,1256,1257,0,1259,1260,0,0,0,0,0,0,0,
0,0,0,0,0,0,0,0,0,0,0,0,0,0,0,0,0,0,0,0,0,0,0,0,0,0,0,0,0,0,0,0,0,0,0,0,0,0,0,0,0,0,0,0,0,0,0,0,0,0,0,0,0,0,0,0,0,0,0,0,
0,0,0,0,0,0,0,0,0,0,0,0,0,0,0,0,0,0,0,0,0,0,0,0,0,0,0,0,0,0,0,0,0,0,0,0,0,0,0,0,0,0,0,0,0,0,0,0,0,0,0,0,0,0,0,0,0,0,0,0,
0,0,0,0,0,0,0,0,0,0,0,0,0,0,0,0,0,0,0,0,0,0,0,0,0,0,0,0,0,0,0,0,0,0,0,0,0,0,0,0,0,0,0,0,0,0,0,0,0,0,0,0,0,0,0,0,0,0,0,0,
0,0,0,0,0,0,0,0,0,0,0,0,0,0,0,0,0,0,0,0,0,0,0,0,0,0,0,0,0,0,0,0,0,0,0,0,0,0,0,0,0,0,0,0,0,0,0,0,0,0,0,0,0,0,0,0,0,0,0,0,
0,0,0,0,0,0,0,0,0,0,0,0,0,0,0,0,0,0,0,0,0,0,0,0,0,0,0,0,0,0,0,0,0,0,0,0,0,0,0,0,0,0,0,0,0,0,0,0,0,0,0,0,0,0,0,0,0,0,0,0,
0,0,0,0,0,0,0,0,0,0,0,0,0,0,0,0,0,0,0,0,0,0,0,0,0,0,0,0,0,0,0,0,0,0,0,0,0,0,0,0,0,0,0,0,0,0,0,0,0,0,0,0,0,0,0,0,0,0,0,0,
0,0,0,0,0,0,0,0,0,0,0,0,0,0,0,0,0,0,0,0,0,0,0,0,0,0,0,0,0,0,0,0,0,0,0,0,0,0,0,0,0,0,0,0,0,0,0,0,0,0,0,0,0,0,0,0,0,0,0,0,
0,0,0,0,0,0,0,0,0,0,0,0,0,0,0,0,0,0,0,0,0,0,0,0,0,0,0,0,0,0,0,0,0,0,0,0,0,0,0,0,0,0,0,0,0,0,0,0,0,0,0,0,0,0,0,0,0,0,0,0,
0,0,0,0,0,0,0,0,0,0,0,0,0,0,0,0,0,0,0,0,0,0,0,0,0,0,0,0,0,0,0,0,0,0,0,0,0,0,0,0,0,0,0,0,0,0,0,0,0,0,0,0,0,0,0,0,0,0,0,0,
0,0,0,0,0,0,0,0,0,0,0,0,0,0,0,0,0,0,0,0,0,0,0,0,0,0,0,0,0,0,0,0,0,0,0,0,0,0,0,0,0,0,0,0,0,0,0,0,0,0,0,0,0,0,0,0,0,0,0,0,
0,0,0,0,0,0,0,0,0,0,0,0,0,0,0,0,0,0,0,0,0,0,0,0,0,0,0,0,0,0,0,0,0,0,0,0,0,0,0,0,0,0,0,0,0,0,0,0,0,0,0,0,0,0,0,0,0,0,0,0,
0,0,0,0,0,0,0,0,0,0,0,0,0,0,0,0,0,0,0,0,0,0,0,0,0,0,0,0,0,0,0,0,0,0,0,0,0,0,0,0,0,0,0,0,0,0,0,0,0,0,0,0,0,0,0,0,0,0,0,0,
0,0,0,0,0,0,0,0,0,0,0,0,0,0,0,0,0,0,0,0,0,0,0,0,0,0,0,0,0,0,0,0,0,0,0,0,0,0,0,0,0,0,0,0,0,0,0,0,0,0,0,0,0,0,0,0,0,0,0,0,
0,0,0,0,0,0,0,0,0,0,0,0,0,0,0,0,0,0,0,0,0,0,0,0,0,0,0,0,0,0,0,0,0,0,0,0,0,0,0,0,0,0,0,0,0,0,0,0,0,0,0,0,0,0,0,0,0,0,0,0,
0,0,0,0,0,0,0,902,903,904,905,0,0,0,0,0,0,0,0,0,0,0,0,0,0,0,0,0,0,0,0,0,0,0,0,0,0,0,0,0,0,0,0,0,0,0,0,0,0,0,0,0,0,0,0,0,0,0,0,0,
0,0,0,0,0,0,0,934,935,936,937,0,0,0,0,0,0,0,0,0,0,0,0,0,0,0,0,0,0,0,0,0,0,0,0,0,0,0,0,0,0,0,0,0,0,0,0,0,939,940,941,942,943,0,0,0,0,0,0,0,
0,0,0,0,0,0,0,966,967,968,969,0,0,0,0,0,0,0,0,0,0,0,0,0,0,0,0,0,0,0,0,0,0,0,0,0,0,0,0,0,0,0,0,0,0,0,0,0,971,972,973,974,975,0,0,0,0,0,0,0,
0,0,0,0,0,0,0,998,999,1000,1001,0,0,0,0,0,0,0,0,0,0,0,0,0,0,0,0,0,0,0,0,0,0,0,0,0,0,0,0,0,0,0,0,0,0,0,0,0,1003,1004,1005,1006,1007,0,0,0,0,0,0,0,
0,0,0,0,0,0,0,1030,1031,1032,1033,0,0,0,0,0,0,0,0,0,0,0,0,0,0,0,0,0,0,0,0,0,0,0,0,0,0,0,0,0,0,0,0,0,0,0,0,0,1035,1036,1037,1038,1039,0,0,0,0,0,0,0,
0,0,0,0,0,0,0,1062,1063,1064,1065,0,0,0,0,0,0,0,0,0,0,0,0,0,0,0,0,0,0,0,0,0,0,0,0,0,0,0,0,0,0,0,0,0,0,0,0,0,0,0,0,0,0,0,0,0,0,0,0,0,
0,0,0,0,0,0,0,0,0,0,0,0,0,0,0,0,0,0,0,0,0,0,0,0,0,0,0,0,0,0,0,0,0,0,0,0,0,0,0,0,0,0,0,0,0,0,0,0,0,0,0,0,0,0,0,0,0,0,0,0,
0,0,0,0,0,0,0,0,0,0,0,0,0,0,0,0,0,0,0,0,0,0,0,0,0,0,0,0,0,0,0,0,0,0,0,0,0,0,0,0,0,0,0,0,0,0,0,0,0,0,0,0,0,0,0,0,0,0,0,0,
0,0,0,0,0,0,0,0,0,0,0,0,0,0,0,0,0,0,0,0,0,0,0,0,0,0,0,0,0,845,846,0,0,0,0,0,0,0,0,0,0,0,0,0,0,0,0,0,0,0,0,0,0,0,0,0,0,0,0,0,
0,0,0,0,0,0,0,0,0,0,0,0,0,0,0,0,0,0,0,0,0,0,0,0,0,0,0,0,0,877,878,0,0,0,0,0,0,0,0,0,0,0,0,0,0,0,0,0,0,0,0,0,0,0,0,0,0,0,0,0,
0,0,0,0,0,0,0,0,0,0,0,0,0,0,0,0,0,0,0,0,0,0,0,0,0,0,0,0,0,0,0,0,0,0,0,0,0,0,0,0,0,0,0,0,0,0,0,0,0,0,0,0,0,0,0,0,0,0,0,0,
0,0,0,0,0,0,0,0,0,0,0,0,0,0,0,0,0,0,0,0,0,0,0,0,0,0,0,0,0,0,0,0,0,0,0,0,0,0,0,0,0,0,0,0,0,0,0,0,0,0,0,0,0,0,0,0,0,0,0,0,
0,0,0,0,0,0,0,0,0,0,0,0,0,0,0,0,0,0,0,0,0,0,0,0,0,0,0,0,0,0,0,0,0,0,0,0,0,0,0,0,0,0,0,0,0,0,0,0,0,0,0,0,0,0,0,0,0,0,0,0,
0,0,0,0,0,0,0,0,0,0,0,0,0,0,0,0,0,0,0,0,0,0,0,0,0,0,0,0,0,0,0,0,0,0,0,0,0,0,0,0,0,0,0,0,0,0,0,0,0,0,0,0,0,0,0,0,0,0,0,0,
0,0,0,0,0,0,0,0,0,0,0,0,0,0,0,0,0,0,0,0,0,0,0,0,0,0,0,0,0,0,0,0,0,0,0,0,0,0,0,0,0,0,0,0,0,0,0,0,0,0,0,0,0,0,0,0,0,0,0,0,
0,0,0,0,0,0,0,0,0,0,0,0,0,0,0,0,0,0,0,0,0,0,0,0,0,0,0,0,0,0,0,0,0,0,0,0,0,0,0,0,0,0,0,0,0,0,0,0,0,0,0,0,0,0,0,0,0,0,0,0,
0,0,0,0,0,0,0,0,0,0,0,0,0,0,0,0,0,0,0,0,0,0,0,0,0,0,0,0,0,0,0,0,0,0,0,0,0,0,0,0,0,0,0,0,0,0,0,0,0,0,0,0,0,0,0,0,0,0,0,0,
0,0,0,0,0,0,0,0,0,0,0,0,0,0,0,0,0,0,0,0,0,0,0,0,0,0,0,0,0,0,0,0,0,0,0,0,0,0,0,0,0,0,0,0,0,0,0,0,0,0,0,0,0,0,0,0,0,0,0,0,
0,0,0,0,0,0,0,0,0,0,0,0,0,0,0,0,0,0,0,0,0,0,0,0,0,0,0,0,0,0,0,0,0,0,0,0,0,0,0,0,0,0,0,0,0,0,0,0,0,0,0,0,0,0,0,0,0,0,0,0,
0,0,0,0,0,0,0,0,0,0,0,0,0,0,0,0,0,0,0,0,0,0,0,0,0,0,0,0,0,0,0,0,0,0,0,0,0,0,0,0,0,0,0,0,0,0,0,0,0,0,0,0,0,0,0,0,0,0,0,0,
0,0,0,0,0,0,0,0,0,0,0,0,0,0,0,0,0,0,0,0,0,0,0,0,0,0,0,0,0,0,0,0,0,0,0,0,0,0,0,0,0,0,0,0,0,0,0,0,0,0,0,0,0,0,0,0,0,0,0,0,
0,0,0,0,0,0,0,0,0,0,0,0,0,0,0,0,0,0,0,0,0,0,0,0,0,0,0,0,0,0,0,0,0,0,0,0,0,0,0,0,0,0,0,0,0,0,0,0,0,0,0,0,0,0,0,0,0,0,0,0,
0,0,0,0,0,0,0,0,0,0,0,0,0,0,0,0,0,0,0,0,0,0,0,0,0,0,0,0,0,0,0,0,0,0,0,0,0,0,0,0,0,0,0,0,0,0,0,0,0,0,0,0,0,0,0,0,0,0,0,0
</data>
 </layer>
 <layer id="6" name="Houses2" width="60" height="60">
  <data encoding="csv">
0,0,0,0,0,0,0,0,0,0,0,0,0,0,0,0,0,0,0,0,0,0,0,0,0,0,0,0,0,0,0,0,0,0,0,0,0,0,0,0,0,0,0,0,0,0,0,0,0,0,0,0,0,0,0,0,0,0,0,0,
0,0,0,0,0,0,0,0,0,0,0,0,0,0,0,0,0,0,0,0,0,0,0,0,0,0,0,0,0,0,0,0,0,0,0,0,0,0,0,0,0,0,0,0,0,0,0,0,0,0,0,0,0,0,0,0,0,0,0,0,
0,0,0,0,0,0,0,0,0,0,0,0,0,0,0,0,0,0,0,0,0,0,0,0,0,0,0,0,0,0,0,0,0,0,0,0,0,0,0,0,0,0,0,0,0,0,0,0,0,0,0,0,0,0,0,0,0,0,0,0,
0,0,0,0,0,0,0,0,0,0,0,0,0,0,0,0,0,0,0,0,0,0,0,0,0,0,0,0,0,0,0,0,0,0,0,0,0,0,0,0,0,0,0,0,0,0,0,0,0,0,0,0,0,0,0,0,0,0,0,0,
0,0,0,0,0,0,0,0,0,0,0,0,0,0,0,0,0,0,0,0,0,0,0,0,0,0,0,0,0,0,0,0,0,0,0,0,0,0,0,0,0,0,0,0,0,0,0,0,0,0,0,0,0,0,0,0,0,0,0,0,
0,0,0,0,0,0,0,0,0,0,0,0,0,0,0,0,0,0,0,0,0,0,0,0,0,0,0,0,0,0,0,0,0,0,0,0,0,0,0,0,0,0,0,0,0,0,0,0,0,0,0,0,0,0,0,0,0,0,0,0,
0,0,0,0,0,0,0,0,0,0,0,0,0,0,0,0,0,0,0,0,0,0,0,0,0,0,0,0,0,0,0,0,0,0,0,0,0,0,0,0,0,0,0,0,0,0,0,0,0,0,0,0,0,0,0,0,0,0,0,0,
0,0,0,0,0,0,0,0,0,0,0,0,0,0,0,0,0,0,0,0,0,0,0,0,0,0,0,0,0,0,0,0,0,0,0,0,0,0,0,0,0,0,0,0,0,0,0,0,0,0,0,0,0,0,0,0,0,0,0,0,
0,0,0,0,0,0,0,0,0,0,0,0,0,0,0,0,0,0,0,0,0,0,0,0,0,0,0,0,0,0,0,0,0,0,0,0,0,0,0,0,0,0,0,0,0,0,0,0,0,0,0,0,0,0,0,0,0,0,0,0,
0,0,0,0,0,0,0,0,0,0,0,0,0,0,0,0,0,0,0,0,0,0,0,0,0,0,0,0,0,0,0,0,0,0,0,0,0,0,0,0,0,0,0,0,0,0,0,0,0,0,0,0,0,0,0,0,0,0,0,0,
0,0,0,0,0,0,0,0,0,0,0,0,0,0,0,0,0,0,0,0,0,0,0,0,0,0,0,0,0,0,0,0,0,0,0,0,0,0,0,0,0,0,0,0,0,0,0,0,0,0,0,0,0,0,0,0,0,0,0,0,
0,0,0,0,0,0,0,0,0,0,0,0,0,0,0,0,0,0,0,0,0,0,0,0,0,0,0,0,0,0,0,0,0,0,0,0,0,0,0,0,0,0,0,0,0,0,0,0,0,0,0,0,0,0,0,0,0,0,0,0,
0,0,0,0,0,0,0,0,0,0,0,0,0,0,0,0,0,0,0,0,0,0,0,0,0,0,0,0,0,0,0,0,0,0,0,0,0,0,0,0,0,0,0,0,0,0,0,0,0,0,0,0,0,0,0,0,0,0,0,0,
0,0,0,0,0,0,0,0,0,0,0,0,0,0,0,0,0,0,0,0,0,0,0,0,0,0,0,0,0,0,0,0,0,0,0,0,0,0,0,0,0,0,0,0,0,0,0,0,0,0,0,0,0,0,0,0,0,0,0,0,
0,0,0,0,0,0,0,0,0,0,0,0,0,0,0,0,0,0,0,0,0,0,0,0,0,0,0,0,0,0,0,0,0,0,0,0,0,0,0,0,0,0,0,0,0,0,0,0,0,0,0,0,0,0,0,0,0,0,0,0,
0,0,0,0,0,0,0,0,0,0,0,0,0,0,0,0,0,0,0,0,0,0,0,0,0,0,0,0,0,0,0,0,0,0,0,0,0,0,0,0,0,0,0,0,0,0,0,0,0,0,0,0,0,0,0,0,0,0,0,0,
0,0,0,0,0,0,0,0,0,0,0,0,0,0,0,0,0,0,0,0,0,0,0,0,0,0,0,0,0,0,0,0,0,0,0,0,0,0,0,0,0,0,0,0,0,0,0,0,0,0,0,0,0,0,0,0,0,0,0,0,
0,0,0,0,0,0,0,1089,1090,1091,1092,1093,1094,0,0,0,0,0,0,0,0,0,0,0,0,0,0,0,0,0,0,0,0,0,0,0,0,0,0,0,0,0,0,0,0,0,0,0,0,0,0,0,0,0,0,0,0,0,0,0,
0,0,0,0,0,0,0,1121,1122,1123,1124,1125,1126,0,0,0,0,0,0,0,0,0,0,0,0,0,0,0,0,0,0,0,0,0,0,0,0,0,0,0,0,0,0,0,0,0,0,0,0,0,0,0,0,0,0,0,0,0,0,0,
0,0,0,0,0,0,0,1153,1154,1155,1156,1157,1158,0,0,0,0,0,0,0,0,0,0,0,0,0,0,0,0,0,0,0,0,0,0,0,0,0,0,0,0,0,0,0,0,0,0,0,0,0,0,1474,1475,2501,0,0,0,0,0,0,
0,0,0,0,0,0,0,1185,1186,1187,1188,1189,1190,0,0,0,0,0,0,0,0,0,0,0,0,0,0,0,0,0,0,0,0,0,0,0,0,0,0,0,0,0,0,0,0,0,0,0,0,0,0,1506,1507,2517,0,0,0,0,0,0,
0,0,0,0,0,0,0,1217,1218,1219,1220,1221,1222,0,0,0,0,0,0,0,0,0,0,0,0,0,0,0,0,0,0,0,0,0,0,0,0,0,0,0,0,0,0,0,0,0,0,0,0,0,0,1602,1603,2565,0,0,0,0,0,0,
0,0,0,0,0,0,0,1249,1250,0,1252,1253,1254,0,0,0,0,0,0,0,0,0,0,0,0,0,0,0,0,0,0,0,0,0,0,0,0,0,0,0,0,0,0,0,0,0,0,0,0,295,0,1634,1635,1637,0,0,0,0,0,0,
0,0,0,0,0,0,0,0,0,0,0,0,0,0,0,0,0,0,0,0,0,0,0,0,0,0,0,0,0,0,0,0,0,0,0,0,0,0,0,0,0,0,0,0,0,0,0,0,0,295,0,0,0,0,0,0,0,0,0,0,
0,0,0,0,0,0,0,0,0,0,0,0,0,0,0,0,0,0,0,0,0,0,0,0,0,0,0,0,0,0,0,0,0,0,0,0,0,0,0,0,0,0,0,0,0,0,0,0,0,0,0,0,0,0,0,0,0,0,0,0,
0,0,0,0,0,0,0,0,0,0,0,0,0,0,0,0,0,0,0,0,0,0,0,0,0,0,0,0,0,0,0,0,0,0,0,0,0,0,0,0,0,0,0,0,0,0,0,0,0,0,0,0,0,0,0,0,0,0,0,0,
0,0,0,0,0,0,0,0,0,0,0,0,0,0,0,0,0,0,0,0,0,0,0,0,0,0,0,0,0,0,0,0,0,0,0,0,0,0,0,0,0,0,0,0,0,0,0,0,0,0,0,0,0,0,0,0,0,0,0,0,
0,0,0,0,0,0,0,0,0,0,0,0,0,0,0,0,0,0,0,0,0,0,0,0,0,0,0,0,0,0,0,0,0,0,0,0,0,0,0,0,0,0,0,0,0,0,0,0,0,0,0,0,0,0,0,0,0,0,0,0,
0,0,0,0,0,0,0,0,0,0,0,0,0,0,0,0,0,0,0,0,0,0,0,0,0,0,0,0,0,0,0,0,0,0,0,0,0,0,0,0,0,0,0,0,0,0,0,0,0,0,0,0,0,0,0,0,0,0,0,0,
0,0,0,0,0,0,0,0,0,0,0,0,0,0,0,0,0,0,0,0,0,0,0,0,0,0,0,0,0,0,0,0,0,0,0,0,0,0,0,0,0,0,0,0,0,0,0,0,0,0,0,0,0,0,0,0,0,0,0,0,
0,0,0,0,0,0,0,0,0,0,0,0,0,0,0,0,0,0,0,0,0,0,0,0,0,0,0,0,0,0,0,0,0,0,0,0,0,0,0,0,0,0,0,0,0,0,0,0,0,0,0,0,0,0,0,0,0,0,0,0,
0,0,0,0,0,0,0,0,0,0,0,0,0,0,0,0,0,0,0,0,0,0,0,0,0,0,0,0,0,0,0,0,0,0,0,0,0,0,0,0,0,0,0,0,0,0,0,0,0,0,0,0,0,0,0,0,0,0,0,0,
0,0,0,0,0,0,0,0,0,0,0,0,0,0,0,0,0,0,0,0,0,0,0,0,0,0,0,0,0,0,0,0,0,0,0,0,0,0,0,0,0,0,0,0,0,0,0,0,0,0,0,0,0,0,0,0,0,0,0,0,
0,0,0,0,0,0,0,0,0,0,0,0,0,0,0,0,0,0,0,0,0,0,0,0,0,0,0,0,0,0,0,0,0,0,0,0,0,0,0,0,0,0,0,0,0,0,0,0,0,0,0,0,0,0,0,0,0,0,0,0,
0,0,0,0,0,0,0,0,0,0,0,0,0,0,0,0,0,0,0,0,0,0,0,0,0,0,0,0,0,0,0,0,0,0,0,0,0,0,0,0,0,0,0,0,0,0,0,0,0,0,0,0,0,0,0,0,0,0,0,0,
0,0,0,0,0,0,0,0,0,0,0,0,0,0,0,0,0,0,0,0,0,0,0,0,0,0,0,0,0,0,0,0,0,0,0,0,0,0,0,0,0,0,0,0,0,0,0,0,0,0,0,0,0,0,0,0,0,0,0,0,
0,0,0,0,0,0,0,0,0,0,0,0,0,0,0,0,0,0,0,0,0,0,0,0,0,0,0,0,0,0,0,0,0,0,0,0,0,0,0,0,0,0,0,0,0,0,0,0,0,0,0,0,0,0,0,0,0,0,0,0,
0,0,0,0,0,0,0,0,0,0,0,0,0,0,0,0,0,0,0,0,0,0,0,0,0,0,0,0,0,0,0,0,0,0,0,0,0,0,0,0,0,0,0,0,0,0,0,0,0,0,0,0,0,0,0,0,0,0,0,0,
0,0,0,0,0,0,0,0,0,0,0,0,0,0,0,0,0,0,0,0,0,0,0,0,0,0,0,0,0,0,0,0,0,0,0,0,0,0,0,0,0,0,0,0,0,0,0,0,0,0,0,0,0,0,0,0,0,0,0,0,
0,0,0,0,0,0,0,0,0,0,0,0,0,0,0,0,0,0,0,0,0,0,0,0,0,0,0,0,0,0,0,0,0,0,0,0,0,0,0,0,0,0,0,0,0,0,0,0,0,0,0,0,0,0,0,0,0,0,0,0,
0,0,0,0,0,0,0,0,0,0,0,0,0,0,0,0,0,0,0,0,0,0,0,0,0,0,0,0,0,0,0,0,0,0,0,0,0,0,0,0,0,0,0,0,0,0,0,0,0,0,0,0,0,0,0,0,0,0,0,0,
0,0,0,0,0,0,0,0,0,0,0,0,0,0,0,0,0,0,0,0,0,0,0,0,0,0,0,0,0,0,0,0,0,0,0,0,0,0,0,0,0,0,0,0,0,0,0,0,0,0,779,780,0,0,0,0,0,0,0,0,
0,0,0,0,0,0,0,0,0,0,0,0,0,0,0,0,0,0,0,0,0,0,0,0,0,0,0,0,0,0,0,0,0,0,0,0,0,0,0,0,0,0,0,0,0,0,0,0,0,0,811,812,0,0,0,0,0,0,0,0,
0,0,0,0,0,0,0,0,0,0,0,0,0,0,0,0,0,0,0,0,0,0,0,0,0,0,0,0,0,0,0,0,0,0,0,0,0,0,0,0,0,0,0,0,0,0,0,0,0,0,0,0,0,0,0,0,0,0,0,0,
0,0,0,0,0,0,0,0,0,0,0,0,0,0,0,0,0,0,0,0,0,0,0,0,0,0,0,0,0,0,0,0,0,0,0,0,0,0,0,0,0,0,0,0,0,0,0,0,0,0,0,0,0,0,0,0,0,0,0,0,
0,0,0,0,0,0,0,0,0,0,0,0,0,0,0,0,0,0,0,0,0,0,0,0,0,0,0,0,0,0,0,0,0,0,0,0,0,0,0,0,0,0,0,0,0,0,0,0,0,0,0,0,0,0,0,0,0,0,0,0,
0,0,0,0,0,0,0,0,0,0,0,0,0,0,0,0,0,0,0,0,0,0,0,0,0,0,0,0,845,846,845,846,0,0,0,0,0,0,0,0,0,0,0,0,0,0,0,0,0,0,0,0,0,0,0,0,0,0,0,0,
0,0,0,0,0,0,0,0,0,0,0,0,0,0,0,0,0,0,0,0,0,0,0,0,0,0,0,0,877,878,877,878,0,0,0,0,0,0,0,0,0,0,0,0,0,0,0,0,0,0,0,0,0,0,0,0,0,0,0,0,
0,0,0,0,0,0,0,0,0,0,0,0,0,0,0,0,0,0,0,0,0,0,0,0,0,0,0,0,0,0,0,0,0,0,0,0,0,0,0,0,0,0,0,0,0,0,0,0,0,0,0,0,0,0,0,0,0,0,0,0,
0,0,0,0,0,0,0,0,0,0,0,0,0,0,0,0,0,0,0,0,0,0,0,0,0,0,0,0,0,0,0,0,0,0,0,0,0,0,0,0,0,0,0,0,0,0,0,0,0,0,0,0,0,0,0,0,0,0,0,0,
0,0,0,0,0,0,0,0,0,0,0,0,0,0,0,0,0,0,0,0,0,0,0,0,0,0,0,0,0,0,0,0,0,0,0,0,0,0,0,0,0,0,0,0,0,0,0,0,0,0,0,0,0,0,0,0,0,0,0,0,
0,0,0,0,0,0,0,0,0,0,0,0,0,0,0,0,0,0,0,0,0,0,0,0,0,0,0,0,0,0,0,0,0,0,0,0,0,0,0,0,0,0,0,0,0,0,0,0,0,0,0,0,0,0,0,0,0,0,0,0,
0,0,0,0,0,0,0,0,0,0,0,0,0,0,0,0,0,0,0,0,0,0,0,0,0,0,0,0,0,0,0,0,0,0,0,0,0,0,0,0,0,0,0,0,0,0,0,0,0,0,0,0,0,0,0,0,0,0,0,0,
0,0,0,0,0,0,0,0,0,0,0,0,0,0,0,0,0,0,0,0,0,0,0,0,0,0,0,0,0,0,0,0,0,0,0,0,0,0,0,0,0,0,0,0,0,0,0,0,0,0,0,0,0,0,0,0,0,0,0,0,
0,0,0,0,0,0,0,0,0,0,0,0,0,0,0,0,0,0,0,0,0,0,0,0,0,0,0,0,0,0,0,0,0,0,0,0,0,0,0,0,0,0,0,0,0,0,0,0,0,0,0,0,0,0,0,0,0,0,0,0,
0,0,0,0,0,0,0,0,0,0,0,0,0,0,0,0,0,0,0,0,0,0,0,0,0,0,0,0,0,0,0,0,0,0,0,0,0,0,0,0,0,0,0,0,0,0,0,0,0,0,0,0,0,0,0,0,0,0,0,0,
0,0,0,0,0,0,0,0,0,0,0,0,0,0,0,0,0,0,0,0,0,0,0,0,0,0,0,0,0,0,0,0,0,0,0,0,0,0,0,0,0,0,0,0,0,0,0,0,0,0,0,0,0,0,0,0,0,0,0,0,
0,0,0,0,0,0,0,0,0,0,0,0,0,0,0,0,0,0,0,0,0,0,0,0,0,0,0,0,0,0,0,0,0,0,0,0,0,0,0,0,0,0,0,0,0,0,0,0,0,0,0,0,0,0,0,0,0,0,0,0,
0,0,0,0,0,0,0,0,0,0,0,0,0,0,0,0,0,0,0,0,0,0,0,0,0,0,0,0,0,0,0,0,0,0,0,0,0,0,0,0,0,0,0,0,0,0,0,0,0,0,0,0,0,0,0,0,0,0,0,0,
0,0,0,0,0,0,0,0,0,0,0,0,0,0,0,0,0,0,0,0,0,0,0,0,0,0,0,0,0,0,0,0,0,0,0,0,0,0,0,0,0,0,0,0,0,0,0,0,0,0,0,0,0,0,0,0,0,0,0,0
</data>
 </layer>
 <objectgroup id="9" name="WorldNodes">
  <object id="1" name="Center" x="478.667" y="366.667">
   <properties>
    <property name="down_left_node" value="BlueVillage"/>
    <property name="down_node" value="StartingVillage"/>
    <property name="down_right_node" value="RedVillage"/>
    <property name="left_node" value="YellowTown"/>
    <property name="right_node" value="RedTown"/>
    <property name="up_node" value="ForestCastle"/>
   </properties>
   <point/>
  </object>
  <object id="2" name="RedTown" x="785.333" y="362.667">
   <properties>
    <property name="left_node" value="Center"/>
   </properties>
   <point/>
  </object>
  <object id="3" name="YellowTown" x="169.333" y="368">
   <properties>
    <property name="right_node" value="Center"/>
   </properties>
   <point/>
  </object>
  <object id="4" name="BlueVillage" x="180" y="645.333">
   <properties>
    <property name="up_right_node" value="Center"/>
   </properties>
   <point/>
  </object>
  <object id="5" name="RedVillage" x="772" y="642.667">
   <properties>
    <property name="up_left_node" value="Center"/>
   </properties>
   <point/>
  </object>
  <object id="6" name="StartingVillage" x="481.333" y="732">
   <properties>
    <property name="up_node" value="Center"/>
   </properties>
   <point/>
  </object>
  <object id="8" name="ForestCastle" x="481.333" y="228">
   <properties>
    <property name="down_node" value="Center"/>
   </properties>
   <point/>
  </object>
 </objectgroup>
</map>
